!!!!SEGMENT: pl-sa--152-a-iv-2--007_bauer--missa-in-f-dona-nobis.krn
!!!cenid: 17xx:678
!!!COM: Bauer
!!!COM-rismid: pe30005329
!!!CDT:
!!!CNT:
!!!OTL: Missa in F – Dona nobis
!!!PDT:
!!!AGN: Sacred; Mass
!!!SMS-siglum: PL-SA
!!!SMS-shelfmark: 152/A IV 2
!!!SMS-shelfwork: 001-007 M
!!!SMS-variant:
!!!SMS-altvar:
!!!NIFC-rismid: 1001035512
!!!URL-scan: http://bc.bdsandomierz.pl/dlibra/publication/1538/edition/1506/content
!!!ONB-nifc: UWAGA: części Mszy: Kyrie, Gloria, Credo, Sanctus, Benedictus, Agnus Dei, Dona nobis
**kern	**dynam	**kern	**dynam	**kern	**dynam	**kern	**text	**kern	**text	**kern	**text	**kern	**kern	**kern
*part9	*part9	*part8	*part8	*part7	*part7	*part6	*part6	*part5	*part5	*part4	*part4	*part3	*part2	*part1
*staff9	*	*staff8	*	*staff7	*	*staff6	*staff6	*staff5	*staff5	*staff4	*staff4	*staff3	*staff2	*staff1
*group5	*	*group4	*	*group4	*	*group3	*	*group3	*	*group3	*	*group2	*group2	*group1
*I"Fundamento	*	*I"Violino Secondo:	*	*I"Violino Primo	*	*I"Baſso	*	*I"Tenore	*	*I"Canto	*	*I"Cornu Secundo in F	*I"Cornu Primo in F	*I"Flauto Primo
*I'org	*	*I'vl 2	*	*I'vl 1	*	*I'B	*	*I'T	*	*I'C	*	*I'cor 2	*I'cor 1	*I'fl 1
*clefF4	*	*clefG2	*	*clefG2	*	*clefF4	*	*clefC4	*	*clefC1	*	*clefG2	*clefG2	*clefG2
*	*	*	*	*	*	*	*	*	*	*	*	*ITrd4c7	*ITrd4c7	*
*k[b-]	*	*k[b-]	*	*k[b-]	*	*k[b-]	*	*k[b-]	*	*k[b-]	*	*k[b-]	*k[b-]	*k[b-]
*F:	*	*F:	*	*F:	*	*F:	*	*F:	*	*F:	*	*F:	*F:	*F:
*M2/4	*	*M2/4	*	*M2/4	*	*M2/4	*	*M2/4	*	*M2/4	*	*M2/4	*M2/4	*M2/4
=1	=1	=1	=1	=1	=1	=1	=1	=1	=1	=1	=1	=1	=1	=1
!	!LO:DY:t=p:	!	!	!	!LO:DY:t=p.	!	!	!	!	!LO:TX:a:t=Solo	!	!LO:TX:a:t=8.	!	!LO:TX:a:t=8.
!LO:TX:a:B:t=Allo:	!	!LO:TX:a:t=problem:brak oznaczenie tempa	!	!LO:TX:a:B:t=Allo:	!	!	!	!LO:TX:a:t=problem:partia zapisana inną ręką; brak informacji na k. tytułowej	!	!LO:TX:a:B:t=Allo	!	!LO:TX:a:B:t=Allo:	!LO:TX:a:B:t=Allo:	!LO:TX:a:B:t=Allo
!	!	!	!	!	!	!LO:N:vis=00	!	!LO:N:vis=00	!	!	!	!LO:N:vis=00	!LO:N:vis=00	!LO:N:vis=00
8F\L	p	8a\L	p	4.cc\	p	0r	.	0r	.	4.cc\	Do-	0r	0r	0r
8F\	.	8a\	.	.	.	.	.	.	.	.	.	.	.	.
8F\	.	8a\	.	.	.	.	.	.	.	.	.	.	.	.
8F\J	.	8a\J	.	8dd\	.	.	.	.	.	8dd\	-na	.	.	.
=2	=2	=2	=2	=2	=2	=2	=2	=2	=2	=2	=2	=2	=2	=2
*2\right	*	*2\right	*	*	*	*	*	*	*	*	*	*	*	*
*tremolo	*	*tremolo	*	*	*	*	*	*	*	*	*	*	*	*
*tremolo	*	*	*	*	*	*	*	*	*	*	*	*	*	*
8F\L	.	8a\L	.	(8dd\L	.	.	.	.	.	8dd\L	no-	.	.	.
8F\	.	8a\	.	8cc\)	.	.	.	.	.	8cc\J	.	.	.	.
8F\	.	8a\	.	8b-'\	.	.	.	.	.	8b-\L	-bis	.	.	.
8F\J	.	8a\J	.	8a'\J	.	.	.	.	.	8a\J	.	.	.	.
=3	=3	=3	=3	=3	=3	=3	=3	=3	=3	=3	=3	=3	=3	=3
8C\L	.	8b-\L	.	(8gg\L	.	.	.	.	.	8gg\L	pa-	.	.	.
8C\	.	8b-\	.	8ff\)	.	.	.	.	.	8ff\	.	.	.	.
8C\	.	8b-\	.	8ee'\	.	.	.	.	.	8ee\	.	.	.	.
8C\J	.	8b-\J	.	8dd'\J	.	.	.	.	.	8dd\J	.	.	.	.
=4	=4	=4	=4	=4	=4	=4	=4	=4	=4	=4	=4	=4	=4	=4
*	*	*tremolo	*	*	*	*	*	*	*	*	*	*	*	*
.	.	.	.	.	.	.	.	.	.	8qqdd/	.	.	.	.
8F\L	.	8a\L	.	(4dd\	.	.	.	.	.	4.cc\	-cem	.	.	.
8F\	.	8a\	.	.	.	.	.	.	.	.	.	.	.	.
8F\	.	8a\	.	4cc\)	.	.	.	.	.	.	.	.	.	.
!	!	!	!	!	!	!	!	!	!	!LO:TX:a:t=SIC:s=8a	!	!	!	!
8F\J	.	8a\J	.	.	.	.	.	.	.	8cc\	da	.	.	.
=5	=5	=5	=5	=5	=5	=5	=5	=5	=5	=5	=5	=5	=5	=5
!	!	!	!	!	!	!LO:N:vis=00	!	!LO:N:vis=00	!	!	!	!LO:N:vis=00	!LO:N:vis=00	!LO:N:vis=00
8C\L	.	8g/L	.	4.b-\	.	0r	.	0r	.	4.b-\	pa-	0r	0r	0r
8C\	.	8g/	.	.	.	.	.	.	.	.	.	.	.	.
8C\	.	8g/	.	.	.	.	.	.	.	.	.	.	.	.
8C\J	.	8g/J	.	8dd\	.	.	.	.	.	8dd\	.	.	.	.
=6	=6	=6	=6	=6	=6	=6	=6	=6	=6	=6	=6	=6	=6	=6
8C\L	.	8g/L	.	(8dd\L	.	.	.	.	.	8dd\L	.	.	.	.
8C\	.	8g/	.	8cc\)	.	.	.	.	.	8cc\	.	.	.	.
8C\	.	8g/	.	(8cc\	.	.	.	.	.	8cc\	.	.	.	.
8C\J	.	8g/J	.	8b-\J)	.	.	.	.	.	8b-\J	.	.	.	.
=7	=7	=7	=7	=7	=7	=7	=7	=7	=7	=7	=7	=7	=7	=7
2F\	.	8g/L	.	(8a/L	.	.	.	.	.	8a\L	.	.	.	.
.	.	8g/	.	8f/)	.	.	.	.	.	8f\	.	.	.	.
.	.	8g/	.	8cc'/	.	.	.	.	.	8cc\	.	.	.	.
.	.	8g/J	.	8a'/J	.	.	.	.	.	8a\J	.	.	.	.
=8	=8	=8	=8	=8	=8	=8	=8	=8	=8	=8	=8	=8	=8	=8
8F\L	.	8a/L	.	4a/	.	.	.	.	.	(4a\	.	.	.	.
8F\	.	8a/	.	.	.	.	.	.	.	.	.	.	.	.
8F\	.	8a/	.	4g/	.	.	.	.	.	4g\)	-cem	.	.	.
8F\J	.	8a/J	.	.	.	.	.	.	.	.	.	.	.	.
!	!	!	!	!	!	!	!	!	!	!LO:LB:g=original	!	!	!	!
=9	=9	=9	=9	=9	=9	=9	=9	=9	=9	=9	=9	=9	=9	=9
*	*	*^	*	*	*	*	*	*	*	*	*	*	*	*
*	*	*tremolo	*tremolo	*	*	*	*	*	*	*	*	*	*	*2\right	*2\right
!	!LO:DY:t=for	!	!	!	!	!	!	!	!	!	!	!	!	!	!
!	!	!	!	!LO:DY:t=for	!	!LO:DY:t=for	!	!	!	!	!	!	!	!	!
8F\L	f	16a/LL	16f\LL	f	4.A/ 4.f 4.cc	f	4F\	Do-	4F/	Do-	4.cc\	Do-	2F/	2f\	2ccc\
.	.	16a/	16f\	.	.	.	.	.	.	.	.	.	.	.	.
8F\	.	16a/	16f\	.	.	.	.	.	.	.	.	.	.	.	.
.	.	16a/	16f\	.	.	.	.	.	.	.	.	.	.	.	.
8F\	.	16a/	16f\	.	.	.	4A\	-na	4A/	-na	.	.	.	.	.
.	.	16a/	16f\	.	.	.	.	.	.	.	.	.	.	.	.
8F\J	.	16a/	16f\	.	8dd\	.	.	.	.	.	8dd\	-na	.	.	.
.	.	16a/JJ	16f\JJ	.	.	.	.	.	.	.	.	.	.	.	.
=10	=10	=10	=10	=10	=10	=10	=10	=10	=10	=10	=10	=10	=10	=10	=10
!LO:TX:a:t=problem:powtórzenie t. 9 oznaczone znakami repetycji	!	!	!	!	!	!	!	!	!	!	!	!	!	!	!
8F\yyL	.	16a/LL	16f\LL	.	(8dd\L	.	4F\	No-	4F/	no-	8dd\L	no-	2F/	2f\	2ddd\
.	.	16a/	16f\	.	.	.	.	.	.	.	.	.	.	.	.
8F\yy	.	16a/	16f\	.	8cc\)	.	.	.	.	.	8cc\J	.	.	.	.
.	.	16a/	16f\	.	.	.	.	.	.	.	.	.	.	.	.
8F\yy	.	16a/	16f\	.	8b-'\	.	4A\	-bis	4A/	-bis	8b-\L	-bis	.	.	.
.	.	16a/	16f\	.	.	.	.	.	.	.	.	.	.	.	.
8F\yyJ	.	16a/	16f\	.	8a'\J	.	.	.	.	.	8a\J	.	.	.	.
.	.	16a/JJ	16f\JJ	.	.	.	.	.	.	.	.	.	.	.	.
!	!	!	!	!	!LO:LB:g=original	!	!LO:LB:g=original	!	!	!	!	!	!	!	!
=11	=11	=11	=11	=11	=11	=11	=11	=11	=11	=11	=11	=11	=11	=11	=11
!	!	!	!	!	!	!	!	!	!LO:TX:a:t=problem:skreślony takt	!	!	!	!	!	!
8C\L	.	16b-/LL	16g\LL	.	(8gg\L	.	4c\	pa-	4c\	pa-	8gg\L	pa-	2F/	2f\	2eee\
.	.	16b-/	16g\	.	.	.	.	.	.	.	.	.	.	.	.
8C\	.	16b-/	16g\	.	8ff\)	.	.	.	.	.	8ff\	.	.	.	.
.	.	16b-/	16g\	.	.	.	.	.	.	.	.	.	.	.	.
8C\	.	16b-/	16g\	.	8ee'\	.	4e\	.	4e\	.	8ee\	.	.	.	.
.	.	16b-/	16g\	.	.	.	.	.	.	.	.	.	.	.	.
8C\J	.	16b-/	16g\	.	8dd'\J	.	.	.	.	.	8dd\J	.	.	.	.
.	.	16b-/JJ	16g\JJ	.	.	.	.	.	.	.	.	.	.	.	.
=12	=12	=12	=12	=12	=12	=12	=12	=12	=12	=12	=12	=12	=12	=12	=12
*	*	*	*tremolo	*	*	*	*	*	*	*	*	*	*	*	*
8F\L	.	16a/LL	16f\LL	.	4dd\	.	4f\	.	4f\	.	4cc\	-cem	2F/	2f\	2fff\
.	.	16a/	16f\	.	.	.	.	.	.	.	.	.	.	.	.
8F\	.	16a/	16f\	.	.	.	.	.	.	.	.	.	.	.	.
.	.	16a/	16f\	.	.	.	.	.	.	.	.	.	.	.	.
8F\	.	16a/	16f\	.	4cc\	.	4F\	-cem	4F/	-cem,	4r	.	.	.	.
.	.	16a/	16f\	.	.	.	.	.	.	.	.	.	.	.	.
8F\J	.	16a/	16f\	.	.	.	.	.	.	.	.	.	.	.	.
.	.	16a/JJ	16f\JJ	.	.	.	.	.	.	.	.	.	.	.	.
*	*	*Xtremolo	*Xtremolo	*	*	*	*	*	*	*	*	*	*	*	*
*	*	*v	*v	*	*	*	*	*	*	*	*	*	*	*	*
!	!	!LO:LB:g=original	!	!	!	!	!	!	!	!	!	!	!	!
=13	=13	=13	=13	=13	=13	=13	=13	=13	=13	=13	=13	=13	=13	=13
*	*	*tremolo	*	*	*	*	*	*	*	*	*	*	*	*
8A\L	.	16gg\LL	.	16bb-\LL	.	4C\	do-	4C/	do-	4.bb-\	Do-	4g\	4b-\	2eee\
.	.	16gg\	.	16bb-\	.	.	.	.	.	.	.	.	.	.
8A\	.	16gg\	.	16bb-\	.	.	.	.	.	.	.	.	.	.
.	.	16gg\JJ	.	16bb-\JJ	.	.	.	.	.	.	.	.	.	.
*	*	*	*	*tremolo	*	*	*	*	*	*	*	*	*	*
*	*	*	*	*tremolo	*	*	*	*	*	*	*	*	*	*
8A\	.	16ee\LL	.	16gg\LL	.	4G\	-na	4G/	-na	.	.	4c\	4g\	.
.	.	16ee\	.	16gg\	.	.	.	.	.	.	.	.	.	.
8A\J	.	16ee\	.	16gg\	.	.	.	.	.	8gg\	-na	.	.	.
.	.	16ee\JJ	.	16gg\JJ	.	.	.	.	.	.	.	.	.	.
=14	=14	=14	=14	=14	=14	=14	=14	=14	=14	=14	=14	=14	=14	=14
8B-\L	.	16ff\LL	.	16aa\LL	.	4F\	no-	4F/	no-	4aa\	no-	4f\	4a\	2fff\
.	.	16ff\	.	16aa\	.	.	.	.	.	.	.	.	.	.
8B-\	.	16ff\	.	16aa\	.	.	.	.	.	.	.	.	.	.
.	.	16ff\JJ	.	16aa\JJ	.	.	.	.	.	.	.	.	.	.
8B-\	.	16cc\LL	.	16ff\LL	.	4A\	-bis	4A/	-bis	4ff\	-bis	4A/	4f\	.
.	.	16cc\	.	16ff\	.	.	.	.	.	.	.	.	.	.
8B-\J	.	16cc\	.	16ff\	.	.	.	.	.	.	.	.	.	.
.	.	16cc\JJ	.	16ff\JJ	.	.	.	.	.	.	.	.	.	.
=15	=15	=15	=15	=15	=15	=15	=15	=15	=15	=15	=15	=15	=15	=15
4c\	.	16b-\LL	.	16gg\LL	.	4B-\	pa-	4B-\	pa-	4gg\	pa-	2c/	2g\	2eee\
.	.	16b-\	.	16gg\	.	.	.	.	.	.	.	.	.	.
.	.	16b-\	.	16gg\	.	.	.	.	.	.	.	.	.	.
.	.	16b-\JJ	.	16gg\JJ	.	.	.	.	.	.	.	.	.	.
4C/	.	16g\LL	.	16ee\LL	.	4c\	.	4c\	.	4ee\	.	.	.	.
.	.	16g\	.	16ee\	.	.	.	.	.	.	.	.	.	.
.	.	16g\	.	16ee\	.	.	.	.	.	.	.	.	.	.
.	.	16g\JJ	.	16ee\JJ	.	.	.	.	.	.	.	.	.	.
*	*	*Xtremolo	*	*Xtremolo	*	*	*	*	*	*	*	*	*	*
=16	=16	=16	=16	=16	=16	=16	=16	=16	=16	=16	=16	=16	=16	=16
4F\	.	4a/	.	4ff\	.	4F\	-cem	4F/	-cem	4ff\	-cem	4A/	4f\	4fff\
4r	.	4r	.	4r	.	4r	.	4r	.	4r	.	4r	4r	4r
=17	=17	=17	=17	=17	=17	=17	=17	=17	=17	=17	=17	=17	=17	=17
*	*	*	*	*	*	*	*	*	*	*	*	*	*	*
!	!	!	!LO:DY:t=p:	!	!LO:DY:t=p:	!LO:TX:a:t=8	!	!	!	!	!	!LO:TX:a:t=8.	!LO:N:vis=00	!LO:N:vis=00
!	!	!	!	!	!	!LO:N:vis=00	!	!LO:N:vis=00	!	!	!	!LO:N:vis=00	!	!
8F\L	p	8a\L	p	4.cc\	p	0r	.	0r	.	4.cc\	Do-	0r	0r	0r
8F\	.	8a\	.	.	.	.	.	.	.	.	.	.	.	.
8F\	.	8a\	.	.	.	.	.	.	.	.	.	.	.	.
8F\J	.	8a\J	.	8dd\	.	.	.	.	.	8dd\	-na	.	.	.
=18	=18	=18	=18	=18	=18	=18	=18	=18	=18	=18	=18	=18	=18	=18
*	*	*tremolo	*	*	*	*	*	*	*	*	*	*	*	*
8F\L	.	8a\L	.	(8dd\L	.	.	.	.	.	8dd\L	no-	.	.	.
8F\	.	8a\	.	8cc\)	.	.	.	.	.	8cc\J	.	.	.	.
8F\	.	8a\	.	8b-'\	.	.	.	.	.	8b-\L	-bis	.	.	.
8F\J	.	8a\J	.	8a'\J	.	.	.	.	.	8a\J	.	.	.	.
!LO:LB:g=original	!	!	!	!	!	!	!	!	!	!	!	!	!	!
=19	=19	=19	=19	=19	=19	=19	=19	=19	=19	=19	=19	=19	=19	=19
8C/L	.	8b-\L	.	(8gg\L	.	.	.	.	.	8gg\L	pa-	.	.	.
8C/	.	8b-\	.	8ff\)	.	.	.	.	.	8ff\	.	.	.	.
8C/	.	8b-\	.	8ee'\	.	.	.	.	.	8ee\	.	.	.	.
8C/J	.	8b-\J	.	8dd'\J	.	.	.	.	.	8dd\J	.	.	.	.
!	!	!	!	!	!	!	!	!	!	!LO:LB:g=original	!	!	!	!
=20	=20	=20	=20	=20	=20	=20	=20	=20	=20	=20	=20	=20	=20	=20
.	.	.	.	.	.	.	.	.	.	8qqdd/	.	.	.	.
8F\L	.	8a\L	.	(4dd\	.	.	.	.	.	4.cc\	-cem	.	.	.
8F\	.	8a\	.	.	.	.	.	.	.	.	.	.	.	.
8F\	.	8a\	.	4cc\)	.	.	.	.	.	.	.	.	.	.
8F\J	.	8a\J	.	.	.	.	.	.	.	8a\	da	.	.	.
=21	=21	=21	=21	=21	=21	=21	=21	=21	=21	=21	=21	=21	=21	=21
!	!	!	!	!	!	!LO:N:vis=00	!	!LO:N:vis=00	!	!	!	!LO:N:vis=00	!LO:N:vis=00	!LO:N:vis=00
8C/L	.	8g/L	.	4.b-\	.	0r	.	0r	.	4.b-\	pa-	0r	0r	0r
8C/	.	8g/	.	.	.	.	.	.	.	.	.	.	.	.
8C/	.	8g/	.	.	.	.	.	.	.	.	.	.	.	.
8C/J	.	8g/J	.	8dd\	.	.	.	.	.	8dd\	.	.	.	.
=22	=22	=22	=22	=22	=22	=22	=22	=22	=22	=22	=22	=22	=22	=22
8C/L	.	8g/L	.	(8dd\L	.	.	.	.	.	8dd\L	.	.	.	.
8C/	.	8g/	.	8cc\)	.	.	.	.	.	8cc\	.	.	.	.
8C/	.	8g/	.	(8cc\	.	.	.	.	.	8cc\	.	.	.	.
8C/J	.	8g/J	.	8b-\J)	.	.	.	.	.	8b-\J	.	.	.	.
=23	=23	=23	=23	=23	=23	=23	=23	=23	=23	=23	=23	=23	=23	=23
8C/L	.	8g/L	.	8a/L	.	.	.	.	.	8a\L	.	.	.	.
8C/	.	8g/	.	8f/	.	.	.	.	.	8f\	.	.	.	.
8C/	.	8g/	.	8cc/	.	.	.	.	.	8cc\	.	.	.	.
8C/J	.	8g/J	.	8a/J	.	.	.	.	.	8a\J	.	.	.	.
!	!	!	!	!LO:LB:g=original	!	!	!	!	!	!	!	!	!	!
=24	=24	=24	=24	=24	=24	=24	=24	=24	=24	=24	=24	=24	=24	=24
8F\L	.	8a/L	.	4a/	.	.	.	.	.	4a\	.	.	.	.
8F\	.	8a/	.	.	.	.	.	.	.	.	.	.	.	.
8F\	.	8a/	.	4g/	.	.	.	.	.	4g\	-cem	.	.	.
8F\J	.	8a/J	.	.	.	.	.	.	.	.	.	.	.	.
!	!	!	!	!	!	!	!	!	!	!	!	!LO:LB:g=original	!	!LO:LB:g=original
=25	=25	=25	=25	=25	=25	=25	=25	=25	=25	=25	=25	=25	=25	=25
*	*	*^	*	*	*	*	*	*	*	*	*	*	*	*
*	*	*tremolo	*tremolo	*	*	*	*	*	*	*	*	*	*	*	*
!	!	!	!	!	!	!LO:DY:t=for	!	!	!	!	!	!	!	!	!
8F\L	.	16a/LL	16f\LL	.	4.A/ 4.f 4.cc	f	4F\	Do-	4F/	Do-	4.cc\	Do-	2F/	2f\	2ccc\
.	.	16a/	16f\	.	.	.	.	.	.	.	.	.	.	.	.
8F\	.	16a/	16f\	.	.	.	.	.	.	.	.	.	.	.	.
.	.	16a/	16f\	.	.	.	.	.	.	.	.	.	.	.	.
8F\	.	16a/	16f\	.	.	.	4A\	-na	4A/	-na	.	.	.	.	.
.	.	16a/	16f\	.	.	.	.	.	.	.	.	.	.	.	.
8F\J	.	16a/	16f\	.	8dd\	.	.	.	.	.	8dd\	-na	.	.	.
.	.	16a/JJ	16f\JJ	.	.	.	.	.	.	.	.	.	.	.	.
!	!	!	!	!	!	!	!	!	!LO:LB:g=original	!	!	!	!	!	!
=26	=26	=26	=26	=26	=26	=26	=26	=26	=26	=26	=26	=26	=26	=26	=26
8F\L	.	16a/LL	16f\LL	.	(8dd\L	.	4F\	No-	4F/	no-	8dd\L	no-	2F/	2f\	2ddd\
.	.	16a/	16f\	.	.	.	.	.	.	.	.	.	.	.	.
8F\	.	16a/	16f\	.	8cc\)	.	.	.	.	.	8cc\J	.	.	.	.
.	.	16a/	16f\	.	.	.	.	.	.	.	.	.	.	.	.
8F\	.	16a/	16f\	.	8b-'\	.	4A\	-bis	4A/	-bis	8b-\L	-bis	.	.	.
.	.	16a/	16f\	.	.	.	.	.	.	.	.	.	.	.	.
8F\J	.	16a/	16f\	.	8a'\J	.	.	.	.	.	8a\J	.	.	.	.
.	.	16a/JJ	16f\JJ	.	.	.	.	.	.	.	.	.	.	.	.
!	!	!	!	!	!	!	!	!	!	!	!	!	!	!LO:LB:g=original	!
=27	=27	=27	=27	=27	=27	=27	=27	=27	=27	=27	=27	=27	=27	=27	=27
8C/L	.	16b-/LL	16g\LL	.	(8gg\L	.	4c\	No-	4c\	no-	8gg\L	pa-	2F/	2f\	2eee\
.	.	16b-/	16g\	.	.	.	.	.	.	.	.	.	.	.	.
8C/	.	16b-/	16g\	.	8ff\)	.	.	.	.	.	8ff\J	.	.	.	.
.	.	16b-/	16g\	.	.	.	.	.	.	.	.	.	.	.	.
8C/	.	16b-/	16g\	.	8ee'\	.	4e\	-bis	4e\	-bis	8ee\L	.	.	.	.
.	.	16b-/	16g\	.	.	.	.	.	.	.	.	.	.	.	.
8C/J	.	16b-/	16g\	.	8dd'\J	.	.	.	.	.	8dd\J	.	.	.	.
.	.	16b-/JJ	16g\JJ	.	.	.	.	.	.	.	.	.	.	.	.
=28	=28	=28	=28	=28	=28	=28	=28	=28	=28	=28	=28	=28	=28	=28	=28
!LO:N:vis=1	!	!	!	!	!	!	!	!	!	!	!	!	!	!	!
*	*	*	*tremolo	*	*	*	*	*	*	*	*	*	*	*	*
8F\L	.	16a/LL	16f\LL	.	4dd\	.	4f\	pa-	4f\	pa-	4cc\	-cem	2F/	2f\	2fff\
.	.	16a/	16f\	.	.	.	.	.	.	.	.	.	.	.	.
8F\	.	16a/	16f\	.	.	.	.	.	.	.	.	.	.	.	.
.	.	16a/	16f\	.	.	.	.	.	.	.	.	.	.	.	.
8F\	.	16a/	16f\	.	4cc\	.	4F\	-cem	4F/	-cem,	4r	.	.	.	.
.	.	16a/	16f\	.	.	.	.	.	.	.	.	.	.	.	.
8F\J	.	16a/	16f\	.	.	.	.	.	.	.	.	.	.	.	.
.	.	16a/JJ	16f\JJ	.	.	.	.	.	.	.	.	.	.	.	.
*	*	*Xtremolo	*Xtremolo	*	*	*	*	*	*	*	*	*	*	*	*
*	*	*v	*v	*	*	*	*	*	*	*	*	*	*	*	*
=29	=29	=29	=29	=29	=29	=29	=29	=29	=29	=29	=29	=29	=29	=29
*	*	*tremolo	*	*tremolo	*	*	*	*	*	*	*	*	*	*
8A\L	.	16gg\LL	.	16bb-\LL	.	4C\	Do-	4C/	Do-	4.bb-\	Do-	4g\	4b-\	2eee\
.	.	16gg\	.	16bb-\	.	.	.	.	.	.	.	.	.	.
8A\	.	16gg\	.	16bb-\	.	.	.	.	.	.	.	.	.	.
.	.	16gg\JJ	.	16bb-\JJ	.	.	.	.	.	.	.	.	.	.
8A\	.	16ee\LL	.	16gg\LL	.	4G\	-na	4G/	-na	.	.	4c\	4g\	.
.	.	16ee\	.	16gg\	.	.	.	.	.	.	.	.	.	.
8A\J	.	16ee\	.	16gg\	.	.	.	.	.	8gg\	-na	.	.	.
.	.	16ee\JJ	.	16gg\JJ	.	.	.	.	.	.	.	.	.	.
!	!	!LO:LB:g=original	!	!	!	!	!	!	!	!	!	!	!	!
=30	=30	=30	=30	=30	=30	=30	=30	=30	=30	=30	=30	=30	=30	=30
8B-\L	.	16ff\LL	.	16aa\LL	.	4F\	No-	4F/	No-	4aa\	no-	4f\	4a\	2fff\
.	.	16ff\	.	16aa\	.	.	.	.	.	.	.	.	.	.
8B-\	.	16ff\	.	16aa\	.	.	.	.	.	.	.	.	.	.
.	.	16ff\JJ	.	16aa\JJ	.	.	.	.	.	.	.	.	.	.
8B-\	.	16cc\LL	.	16ff\LL	.	4A\	-bis	4A/	-bis	4ff\	-bis	4c\	4f\	.
.	.	16cc\	.	16ff\	.	.	.	.	.	.	.	.	.	.
8B-\J	.	16cc\	.	16ff\	.	.	.	.	.	.	.	.	.	.
.	.	16cc\JJ	.	16ff\JJ	.	.	.	.	.	.	.	.	.	.
=31	=31	=31	=31	=31	=31	=31	=31	=31	=31	=31	=31	=31	=31	=31
4c\	.	16b-\LL	.	16gg\LL	.	4B-\	Pa-	4B-\	pa-	4gg\	pa-	2c/	2g\	2eee\
.	.	16b-\	.	16gg\	.	.	.	.	.	.	.	.	.	.
.	.	16b-\	.	16gg\	.	.	.	.	.	.	.	.	.	.
.	.	16b-\JJ	.	16gg\JJ	.	.	.	.	.	.	.	.	.	.
4C/	.	16g/LL	.	16ee\LL	.	4c\	.	4c\	.	4ee\	.	.	.	.
.	.	16g/	.	16ee\	.	.	.	.	.	.	.	.	.	.
.	.	16g/	.	16ee\	.	.	.	.	.	.	.	.	.	.
.	.	16g/JJ	.	16ee\JJ	.	.	.	.	.	.	.	.	.	.
!	!	!	!	!	!	!LO:LB:g=original	!	!	!	!LO:LB:g=original	!	!	!	!
*	*	*Xtremolo	*	*Xtremolo	*	*	*	*	*	*	*	*	*	*
=32	=32	=32	=32	=32	=32	=32	=32	=32	=32	=32	=32	=32	=32	=32
4F\	.	4a/	.	4ff\	.	4F\	-cem	4F/	-cem,	4ff\	-cem	4A/	4f\	4fff\
4r	.	4r	.	4r	.	4r	.	4r	.	4r	.	4r	4r	4r
=33	=33	=33	=33	=33	=33	=33	=33	=33	=33	=33	=33	=33	=33	=33
*	*	*tremolo	*	*	*	*	*	*	*	*	*	*	*	*
!	!	!	!	!	!	!LO:N:vis=00	!	!	!	!	!	!	!LO:TX:a:t=8.	!LO:N:vis=00
!	!	!	!LO:DY:t=p:	!	!LO:DY:t=p:	!	!	!LO:N:vis=00	!	!	!	!LO:N:vis=00	!LO:N:vis=00	!
8C/L	.	8G/ 8eL	p	4.cc\	p	0r	.	0r	.	4.cc\	Do-	0r	0r	0r
8C/	.	8G/ 8e	.	.	.	.	.	.	.	.	.	.	.	.
8C/	.	8G/ 8e	.	.	.	.	.	.	.	.	.	.	.	.
8C/J	.	8G/ 8eJ	.	8cc\	.	.	.	.	.	8cc\	-na	.	.	.
=34	=34	=34	=34	=34	=34	=34	=34	=34	=34	=34	=34	=34	=34	=34
8C/L	.	8G/ 8eL	.	8bn'\L	.	.	.	.	.	8bn\L	no-	.	.	.
8C/	.	8G/ 8e	.	8cc'\	.	.	.	.	.	8cc\J	.	.	.	.
8C/	.	8G/ 8e	.	8dd'\	.	.	.	.	.	8dd\L	-bis	.	.	.
8C/J	.	8G/ 8eJ	.	8ee'\J	.	.	.	.	.	8ee\J	.	.	.	.
=35	=35	=35	=35	=35	=35	=35	=35	=35	=35	=35	=35	=35	=35	=35
8BBn/L	.	8G/ 8dL	.	8ff\L	.	.	.	.	.	8ff\L	pa-	.	.	.
8BBn/	.	8G/ 8d	.	8aa\	.	.	.	.	.	8aa\	.	.	.	.
8BBn/	.	8G/ 8d	.	8gg\	.	.	.	.	.	8gg\	.	.	.	.
8BBn/J	.	8G/ 8dJ	.	8ff\J	.	.	.	.	.	8ff\J	.	.	.	.
*Xtremolo	*	*	*	*	*	*	*	*	*	*	*	*	*	*
!LO:LB:g=original	!	!	!	!	!	!	!	!	!	!	!	!	!	!
=36	=36	=36	=36	=36	=36	=36	=36	=36	=36	=36	=36	=36	=36	=36
!LO:TX:a:t=SIC:s=8BBn	!	!	!	!	!	!	!	!	!	!	!	!	!	!
8BB-/L	.	8G/ 8eL	.	4ff\	.	.	.	.	.	4ff\	.	.	.	.
!LO:TX:a:t=SIC:s=8BBn	!	!	!	!	!	!	!	!	!	!	!	!	!	!
8BB-/	.	8G/ 8e	.	.	.	.	.	.	.	.	.	.	.	.
8C/	.	8G/ 8e	.	4ee\	.	.	.	.	.	4ee\	-cem	.	.	.
8C/J	.	8G/ 8eJ	.	.	.	.	.	.	.	.	.	.	.	.
=37	=37	=37	=37	=37	=37	=37	=37	=37	=37	=37	=37	=37	=37	=37
*tremolo	*	*	*	*	*	*	*	*	*	*	*	*	*	*
!	!	!	!	!	!	!LO:N:vis=00	!	!LO:N:vis=00	!	!	!	!LO:N:vis=00	!LO:N:vis=00	!LO:N:vis=00
8C/L	.	8G/ 8eL	.	4.gg\	.	0r	.	0r	.	4.gg\	Do-	0r	0r	0r
8C/	.	8G/ 8e	.	.	.	.	.	.	.	.	.	.	.	.
8C/	.	8G/ 8e	.	.	.	.	.	.	.	.	.	.	.	.
8C/J	.	8G/ 8eJ	.	8gg\	.	.	.	.	.	8gg\	-na	.	.	.
!	!	!	!	!LO:LB:g=original	!	!	!	!	!	!	!	!	!	!
=38	=38	=38	=38	=38	=38	=38	=38	=38	=38	=38	=38	=38	=38	=38
8C/L	.	8G/ 8fL	.	(8aa\L	.	.	.	.	.	8aa\L	no-	.	.	.
8C/	.	8G/ 8f	.	8ff\)	.	.	.	.	.	8ff\J	.	.	.	.
8C/	.	8G/ 8f	.	8ee'\	.	.	.	.	.	8ee\L	-bis	.	.	.
8C/J	.	8G/ 8fJ	.	8dd'\J	.	.	.	.	.	8dd\J	.	.	.	.
*Xtremolo	*	*	*	*	*	*	*	*	*	*	*	*	*	*
=39	=39	=39	=39	=39	=39	=39	=39	=39	=39	=39	=39	=39	=39	=39
8E\L	.	8G/ 8dL	.	(8cc#X\L	.	.	.	.	.	8cc#X\L	pa-	.	.	.
8E\	.	8G/ 8d	.	8dd\)	.	.	.	.	.	8dd\	.	.	.	.
8C\	.	8G/ 8d	.	8ff'\	.	.	.	.	.	8ff\	.	.	.	.
8C\J	.	8G/ 8dJ	.	8dd'\J	.	.	.	.	.	8dd\J	.	.	.	.
=40	=40	=40	=40	=40	=40	=40	=40	=40	=40	=40	=40	=40	=40	=40
!LO:TX:a:t=problem:mixed beam	!	!	!	!	!	!	!	!	!	!	!	!	!	!
8G\L	.	8G/ 8eL	.	4ccn\	.	.	.	.	.	4ccn\	.	.	.	.
8G\	.	8G/ 8e	.	.	.	.	.	.	.	.	.	.	.	.
8GG/	.	8G/ 8e	.	4bn\	.	.	.	.	.	4bn\	-cem	.	.	.
8GG/J	.	8G/ 8eJ	.	.	.	.	.	.	.	.	.	.	.	.
=41	=41	=41	=41	=41	=41	=41	=41	=41	=41	=41	=41	=41	=41	=41
*	*	*tremolo	*	*	*	*	*	*	*	*	*	*2\right	*	*
8G\L	.	16d/L 16bn	.	4g/	.	4G\	Do-	4G/	Do-	4dd\	Do-	2g\	2bX\	4fff\
.	.	16d/ 16bn	.	.	.	.	.	.	.	.	.	.	.	.
8d\	.	16d/ 16bn	.	.	.	.	.	.	.	.	.	.	.	.
.	.	16d/ 16bn	.	.	.	.	.	.	.	.	.	.	.	.
8Bn\	.	16d/ 16bn	.	16ff\LL	.	4G\	-na	4G/	-na	4dd\	-na	.	.	4fff\
.	.	16d/ 16bn	.	16dd\	.	.	.	.	.	.	.	.	.	.
8G\J	.	16d/ 16bn	.	16ff\	.	.	.	.	.	.	.	.	.	.
.	.	16d/J 16bn	.	16dd\JJ	.	.	.	.	.	.	.	.	.	.
=42	=42	=42	=42	=42	=42	=42	=42	=42	=42	=42	=42	=42	=42	=42
8c\L	.	16e/L 16cc	.	16ee\LL	.	4c\	No-	4c\	No-	4ee\	no-	2g\	2cc\	2eee\
.	.	16e/ 16cc	.	16cc\	.	.	.	.	.	.	.	.	.	.
8G\	.	16e/ 16cc	.	16gg\	.	.	.	.	.	.	.	.	.	.
.	.	16e/ 16cc	.	16ee\JJ	.	.	.	.	.	.	.	.	.	.
8E\	.	16e/ 16cc	.	8ccc\L	.	4C/	-bis	4C/	-bis	4ee\	-bis	.	.	.
.	.	16e/ 16cc	.	.	.	.	.	.	.	.	.	.	.	.
8C\J	.	16e/ 16cc	.	8gg\J	.	.	.	.	.	.	.	.	.	.
.	.	16e/J 16cc	.	.	.	.	.	.	.	.	.	.	.	.
!	!	!	!	!	!	!	!	!	!	!LO:LB:g=original	!	!	!	!
=43	=43	=43	=43	=43	=43	=43	=43	=43	=43	=43	=43	=43	=43	=43
8G\L	.	16d/L 16bn	.	4g/	.	4G\	No-	4G/	No-	4dd\	{Do-	2g\	2bX\	4fff\
.	.	16d/ 16bn	.	.	.	.	.	.	.	.	.	.	.	.
8d\	.	16d/ 16bn	.	.	.	.	.	.	.	.	.	.	.	.
.	.	16d/ 16bn	.	.	.	.	.	.	.	.	.	.	.	.
8Bn\	.	16d/ 16bn	.	16ff\LL	.	4d\	-bis	4d\	-bis	4dd\	-na	.	.	4fff\
.	.	16d/ 16bn	.	16dd\	.	.	.	.	.	.	.	.	.	.
8G\J	.	16d/ 16bn	.	16ff\	.	.	.	.	.	.	.	.	.	.
.	.	16d/J 16bn	.	16dd\JJ	.	.	.	.	.	.	.	.	.	.
=44	=44	=44	=44	=44	=44	=44	=44	=44	=44	=44	=44	=44	=44	=44
8c\L	.	16e/L 16cc	.	16ee\LL	.	4c\	pa-	4c\	pa-	4ee\	no-	2g\	2cc\	2eee\
.	.	16e/ 16cc	.	16cc\	.	.	.	.	.	.	.	.	.	.
8G\	.	16e/ 16cc	.	16gg\	.	.	.	.	.	.	.	.	.	.
.	.	16e/ 16cc	.	16ee\JJ	.	.	.	.	.	.	.	.	.	.
8E\	.	16e/ 16cc	.	8ccc\L	.	4C/	-cem	4C/	-cem,	4ee\	-bis}	.	.	.
.	.	16e/ 16cc	.	.	.	.	.	.	.	.	.	.	.	.
8C\J	.	16e/ 16cc	.	8gg\J	.	.	.	.	.	.	.	.	.	.
.	.	16e/J 16cc	.	.	.	.	.	.	.	.	.	.	.	.
=45	=45	=45	=45	=45	=45	=45	=45	=45	=45	=45	=45	=45	=45	=45
*tremolo	*	*tremolo	*	*tremolo	*	*	*	*	*	*	*	*	*	*
8C/L	.	16ff\L	.	16aa\LL	.	4F\	do-	4F/	Do-	4aa\	Do-	2f\	2a\	4aa\
.	.	16ff\	.	16aa\	.	.	.	.	.	.	.	.	.	.
8C/	.	16ff\	.	16aa\	.	.	.	.	.	.	.	.	.	.
.	.	16ff\J	.	16aa\JJ	.	.	.	.	.	.	.	.	.	.
8C/	.	16aa\L	.	16ccc\LL	.	4F\	-na	4F/	-na	4ff\	-na	.	.	4ccc\
.	.	16aa\	.	16ccc\	.	.	.	.	.	.	.	.	.	.
8C/J	.	16aa\	.	16ccc\	.	.	.	.	.	.	.	.	.	.
.	.	16aa\J	.	16ccc\JJ	.	.	.	.	.	.	.	.	.	.
=46	=46	=46	=46	=46	=46	=46	=46	=46	=46	=46	=46	=46	=46	=46
8C/L	.	16ff\LL	.	16gg\LL	.	4E\	No-	4E/	No-	4gg\	no-	2g\	2cc\	4gg\
.	.	16ff\	.	16gg\	.	.	.	.	.	.	.	.	.	.
8C/	.	16ff\	.	16gg\	.	.	.	.	.	.	.	.	.	.
.	.	16ff\JJ	.	16gg\JJ	.	.	.	.	.	.	.	.	.	.
8C/	.	16cc\LL	.	16ee\LL	.	4C\	-bis	4C/	-bis	4ee\	-bis	.	.	4ee\
.	.	16cc\	.	16ee\	.	.	.	.	.	.	.	.	.	.
8C/J	.	16cc\	.	16ee\	.	.	.	.	.	.	.	.	.	.
.	.	16cc\JJ	.	16ee\JJ	.	.	.	.	.	.	.	.	.	.
!	!	!	!	!	!	!	!	!LO:LB:g=original	!	!	!	!	!	!
*Xtremolo	*	*Xtremolo	*	*Xtremolo	*	*	*	*	*	*	*	*	*	*
!	!	!LO:LB:g=original	!	!	!	!	!	!	!	!	!	!	!	!
=47	=47	=47	=47	=47	=47	=47	=47	=47	=47	=47	=47	=47	=47	=47
*	*	*	*	*^	*	*	*	*	*	*	*	*	*	*
*	*	*	*	*	*	*	*	*	*	*	*2\right	*	*	*	*
!LO:TX:a:t=problem:mixed beam	!	!	!	!	!	!	!	!	!	!	!	!	!	!	!
8G\L	.	8bn\	.	8dd/	8g\	.	4G\	pa-	4G/	pa-	2dd\	pa-	2g\	2bX\	2ddd\
8G\	.	4b\	.	4dd/	4g\	.	.	.	.	.	.	.	.	.	.
8GG/	.	.	.	.	.	.	4GG/	-cem	4GG/	-cem,	.	.	.	.	.
8GG/J	.	8dd\	.	8ff\	8reyy	.	.	.	.	.	.	.	.	.	.
*	*	*	*	*v	*v	*	*	*	*	*	*	*	*	*	*
=48	=48	=48	=48	=48	=48	=48	=48	=48	=48	=48	=48	=48	=48	=48
*tremolo	*	*tremolo	*	*	*	*	*	*	*	*	*	*	*	*
8C/L	.	16e/L 16cc	.	8ff\L	.	4C/	Do-	4C/	Do-	4ee\	-cem	2g\	2cc\	2ccc\
.	.	16e/ 16cc	.	.	.	.	.	.	.	.	.	.	.	.
8C/	.	16e/ 16cc	.	8ee\	.	.	.	.	.	.	.	.	.	.
.	.	16e/ 16cc	.	.	.	.	.	.	.	.	.	.	.	.
8C/	.	16e/ 16cc	.	8dd\	.	4C/	-na	4C/	-na	4r	.	.	.	.
.	.	16e/ 16cc	.	.	.	.	.	.	.	.	.	.	.	.
8C/J	.	16e/ 16cc	.	8cc\J	.	.	.	.	.	.	.	.	.	.
.	.	16e/J 16cc	.	.	.	.	.	.	.	.	.	.	.	.
!	!	!	!	!LO:LB:g=original	!	!	!	!	!	!	!	!	!	!LO:LB:g=original
=49	=49	=49	=49	=49	=49	=49	=49	=49	=49	=49	=49	=49	=49	=49
8C/L	.	16ff\L	.	8aa\L	.	4F\	No-	4F/	no-	4aa\	Do-	2f\	2a\	4aa\
.	.	16ff\	.	.	.	.	.	.	.	.	.	.	.	.
8C/	.	16ff\	.	8ff\J	.	.	.	.	.	.	.	.	.	.
.	.	16ff\J	.	.	.	.	.	.	.	.	.	.	.	.
8C/	.	16aa\L	.	16ccc\LL	.	4F\	-bis	4F/	-bis	4aa\	-na	.	.	4ccc\
.	.	16aa\	.	16aa\	.	.	.	.	.	.	.	.	.	.
8C/J	.	16aa\	.	16ccc\	.	.	.	.	.	.	.	.	.	.
.	.	16aa\J	.	16aa\JJ	.	.	.	.	.	.	.	.	.	.
!LO:LB:g=original	!	!	!	!	!	!	!	!	!	!	!	!	!	!
=50	=50	=50	=50	=50	=50	=50	=50	=50	=50	=50	=50	=50	=50	=50
8C/L	.	16ff\LL	.	16gg\LL	.	4E\	pa-	4E/	pa-	4gg\	no-	2g\	2cc\	4gg\
.	.	16ff\	.	16bbn\	.	.	.	.	.	.	.	.	.	.
8C/	.	16ff\	.	16ccc\	.	.	.	.	.	.	.	.	.	.
.	.	16ff\JJ	.	16bb\JJ	.	.	.	.	.	.	.	.	.	.
8C/	.	16cc\LL	.	16aa\LL	.	4C\	-cem	4C/	-cem	4ee\	-bis	.	.	4ee\
.	.	16cc\	.	16gg\	.	.	.	.	.	.	.	.	.	.
8C/J	.	16cc\	.	16ff\	.	.	.	.	.	.	.	.	.	.
.	.	16cc\JJ	.	16ee\JJ	.	.	.	.	.	.	.	.	.	.
!	!	!	!	!	!	!	!	!	!	!	!	!LO:LB:g=original	!	!
*Xtremolo	*	*	*	*	*	*	*	*	*	*	*	*	*	*
=51	=51	=51	=51	=51	=51	=51	=51	=51	=51	=51	=51	=51	=51	=51
*	*	*	*	*^	*	*	*	*	*	*	*	*	*	*
!LO:TX:a:t=problem:mixed beam	!	!	!	!	!	!	!	!	!	!	!	!	!	!	!
8G\L	.	8bn\	.	8dd/	8g\	.	4G\	{Do-	4G/	{Do-	2dd\	pa-	2g\	2bX\	2ddd\
8G\	.	4b\	.	4dd/	4g\	.	.	.	.	.	.	.	.	.	.
8GG/	.	.	.	.	.	.	4GG/	-na	4GG/	-na	.	.	.	.	.
8GG/J	.	8dd\	.	8ff\	8reyy	.	.	.	.	.	.	.	.	.	.
*	*	*	*	*v	*v	*	*	*	*	*	*	*	*	*	*
!	!	!	!	!	!	!	!	!	!	!	!	!	!LO:LB:g=original	!
=52	=52	=52	=52	=52	=52	=52	=52	=52	=52	=52	=52	=52	=52	=52
*tremolo	*	*	*	*	*	*	*	*	*	*	*	*	*	*
8C/L	.	16e/LL 16cc	.	8ff\L	.	4C/	No-	4C/	No-	4ee\	-cem	2g\	2cc\	2eee\
.	.	16e/ 16cc	.	.	.	.	.	.	.	.	.	.	.	.
8C/	.	16e/ 16cc	.	8ee\	.	.	.	.	.	.	.	.	.	.
.	.	16e/ 16cc	.	.	.	.	.	.	.	.	.	.	.	.
8C/	.	16e/ 16cc	.	8dd\	.	4C/	-bis}	4C/	-bis}	4r	.	.	.	.
.	.	16e/ 16cc	.	.	.	.	.	.	.	.	.	.	.	.
8C/J	.	16e/ 16cc	.	8cc\J	.	.	.	.	.	.	.	.	.	.
.	.	16e/JJ 16cc	.	.	.	.	.	.	.	.	.	.	.	.
=53	=53	=53	=53	=53	=53	=53	=53	=53	=53	=53	=53	=53	=53	=53
*	*	*	*	*^	*	*	*	*	*	*	*	*	*	*
8G\L	.	16g/LL	.	4dd/	4g\	.	4G\	pa-	4G/	pa-	4dd\	pa-	4g\	4g\	4ddd\
.	.	16g/	.	.	.	.	.	.	.	.	.	.	.	.	.
8G\	.	16g/	.	.	.	.	.	.	.	.	.	.	.	.	.
.	.	16g/	.	.	.	.	.	.	.	.	.	.	.	.	.
8G\	.	16g/	.	4ee/	4a\	.	4c\	.	4c\	.	4ee\	.	4g\	4g\	4eee\
.	.	16g/	.	.	.	.	.	.	.	.	.	.	.	.	.
8G\J	.	16g/	.	.	.	.	.	.	.	.	.	.	.	.	.
.	.	16g/JJ	.	.	.	.	.	.	.	.	.	.	.	.	.
!	!	!	!	!	!	!	!LO:LB:g=original	!	!	!	!	!	!	!	!
=54	=54	=54	=54	=54	=54	=54	=54	=54	=54	=54	=54	=54	=54	=54	=54
8G\L	.	16g/LL	.	4ff/	4g\	.	4d\	.	4d\	.	4ff\	.	4g\	4g\	4fff\
.	.	16g/	.	.	.	.	.	.	.	.	.	.	.	.	.
8G\	.	16g/	.	.	.	.	.	.	.	.	.	.	.	.	.
.	.	16g/	.	.	.	.	.	.	.	.	.	.	.	.	.
8G\	.	16g/	.	4ee/	4g\	.	4c\	.	4c\	.	4ee\	.	4g\	4g\	4eee\
.	.	16g/	.	.	.	.	.	.	.	.	.	.	.	.	.
8G\J	.	16g/	.	.	.	.	.	.	.	.	.	.	.	.	.
.	.	16g/JJ	.	.	.	.	.	.	.	.	.	.	.	.	.
*Xtremolo	*	*	*	*	*	*	*	*	*	*	*	*	*	*	*
=55	=55	=55	=55	=55	=55	=55	=55	=55	=55	=55	=55	=55	=55	=55	=55
*	*	*tremolo	*	*	*	*	*	*	*	*	*	*	*	*	*
4G\	.	16G/L 16g	.	4dd/	4g\	.	4G\	-cem	4G/	-cem	4dd\	-cem	4g\	4g\	4ddd\
.	.	16G/ 16g	.	.	.	.	.	.	.	.	.	.	.	.	.
.	.	16G/ 16g	.	.	.	.	.	.	.	.	.	.	.	.	.
.	.	16G/ 16g	.	.	.	.	.	.	.	.	.	.	.	.	.
4r	.	16G/ 16g	.	4r	4ryy	.	4r	.	4r	.	4r	.	8g\L	8g\L	4r
.	.	16G/ 16g	.	.	.	.	.	.	.	.	.	.	.	.	.
.	.	16G/ 16g	.	.	.	.	.	.	.	.	.	.	8g\J	8g\J	.
.	.	16G/J 16g	.	.	.	.	.	.	.	.	.	.	.	.	.
=56	=56	=56	=56	=56	=56	=56	=56	=56	=56	=56	=56	=56	=56	=56	=56
4r	.	16G/LL 16g	.	4r	4ryy	.	4r	.	4r	.	4r	.	2g\	2g\	4r
.	.	16G/ 16g	.	.	.	.	.	.	.	.	.	.	.	.	.
.	.	16G/ 16g	.	.	.	.	.	.	.	.	.	.	.	.	.
.	.	16G/ 16g	.	.	.	.	.	.	.	.	.	.	.	.	.
4c\	.	16G/ 16g	.	4ee/	4g\	.	4c\	pa-	4c\	pa-	4ee\	pa-	.	.	4eee\
.	.	16G/ 16g	.	.	.	.	.	.	.	.	.	.	.	.	.
.	.	16G/ 16g	.	.	.	.	.	.	.	.	.	.	.	.	.
.	.	16G/JJ 16g	.	.	.	.	.	.	.	.	.	.	.	.	.
=57	=57	=57	=57	=57	=57	=57	=57	=57	=57	=57	=57	=57	=57	=57	=57
4G\	.	16G/LL 16g	.	4dd/	4g\	.	4G\	-cem	4G/	-cem	4dd\	-cem	2g\	2g\	4ddd\
.	.	16G/ 16g	.	.	.	.	.	.	.	.	.	.	.	.	.
.	.	16G/ 16g	.	.	.	.	.	.	.	.	.	.	.	.	.
.	.	16G/ 16g	.	.	.	.	.	.	.	.	.	.	.	.	.
!	!	!	!	!	!	!	!	!	!LO:TX:a:t=bis	!	!	!	!	!	!
4r	.	16G/ 16g	.	4r	4ryy	.	4r	.	4r	.	4r	.	.	.	4r
.	.	16G/ 16g	.	.	.	.	.	.	.	.	.	.	.	.	.
.	.	16G/ 16g	.	.	.	.	.	.	.	.	.	.	.	.	.
.	.	16G/JJ 16g	.	.	.	.	.	.	.	.	.	.	.	.	.
!	!	!	!	!	!	!	!	!	!	!	!LO:LB:g=original	!	!	!	!
=58	=58	=58	=58	=58	=58	=58	=58	=58	=58	=58	=58	=58	=58	=58	=58
!	!	!	!	!	!	!	!LO:TX:a:t=problem:powtórzenie tt. 56-57 oznaczone znakami repetycji	!	!LO:TX:a:t=problem:powtórzenie tt. 56-57	!	!	!	!	!	!
4r	.	16G/LL 16g	.	4r	4ryy	.	4ryy	.	4ryy	.	4r	.	2g\	2g\	4r
.	.	16G/ 16g	.	.	.	.	.	.	.	.	.	.	.	.	.
.	.	16G/ 16g	.	.	.	.	.	.	.	.	.	.	.	.	.
.	.	16G/ 16g	.	.	.	.	.	.	.	.	.	.	.	.	.
!	!	!	!	!	!	!	!LO:TX:a:t=SIC:s=4d	!	!LO:TX:a:t=SIC:s=4d	!	!	!	!	!	!
4d\	.	16G/ 16g	.	4ff/	4g\	.	4c\yy	pa-	4c\yy	pa-	4dd\	pa-	.	.	4fff\
.	.	16G/ 16g	.	.	.	.	.	.	.	.	.	.	.	.	.
.	.	16G/ 16g	.	.	.	.	.	.	.	.	.	.	.	.	.
.	.	16G/JJ 16g	.	.	.	.	.	.	.	.	.	.	.	.	.
=59	=59	=59	=59	=59	=59	=59	=59	=59	=59	=59	=59	=59	=59	=59	=59
4c\	.	16G/LL 16g	.	4ee/	4g\	.	4G\yy	-cem	4G/yy	-cem	4ee\	-cem	2g\	2g\	4eee\
.	.	16G/ 16g	.	.	.	.	.	.	.	.	.	.	.	.	.
.	.	16G/ 16g	.	.	.	.	.	.	.	.	.	.	.	.	.
.	.	16G/ 16g	.	.	.	.	.	.	.	.	.	.	.	.	.
4r	.	16G/ 16g	.	4r	4ryy	.	4ryy	.	4ryy	.	4r	.	.	.	4r
.	.	16G/ 16g	.	.	.	.	.	.	.	.	.	.	.	.	.
.	.	16G/ 16g	.	.	.	.	.	.	.	.	.	.	.	.	.
.	.	16G/JJ 16g	.	.	.	.	.	.	.	.	.	.	.	.	.
=60	=60	=60	=60	=60	=60	=60	=60	=60	=60	=60	=60	=60	=60	=60	=60
!	!	!LO:TX:a:t=problem:powtórzenie tt. 55-59 oznaczone znakami repetycji	!	!	!	!	!	!	!	!	!	!	!	!	!
4r	.	16G/LLyy 16gyy	.	4r	4ryy	.	4r	.	4r	.	4r	.	2g\	2g\	4r
.	.	16G/ 16g	.	.	.	.	.	.	.	.	.	.	.	.	.
.	.	16G/ 16g	.	.	.	.	.	.	.	.	.	.	.	.	.
.	.	16G/ 16g	.	.	.	.	.	.	.	.	.	.	.	.	.
!	!	!	!	!	!	!	!LO:TX:a:t=c	!	!LO:TX:a:t=SIC:s=4c	!	!	!	!	!	!
4c\	.	16G/ 16g	.	4ee/	4g\	.	4c\	pa-	4d\	pa-	4ee\	{pa-	.	.	4eee\
.	.	16G/ 16g	.	.	.	.	.	.	.	.	.	.	.	.	.
.	.	16G/ 16g	.	.	.	.	.	.	.	.	.	.	.	.	.
.	.	16G/JJ 16g	.	.	.	.	.	.	.	.	.	.	.	.	.
=61	=61	=61	=61	=61	=61	=61	=61	=61	=61	=61	=61	=61	=61	=61	=61
4G\	.	16G/LLyy 16gyy	.	4dd/	4g\	.	4c\	-cem	4c\	-cem	4dd\	-cem}	2g\	2g\	4ddd\
.	.	16G/ 16g	.	.	.	.	.	.	.	.	.	.	.	.	.
.	.	16G/ 16g	.	.	.	.	.	.	.	.	.	.	.	.	.
.	.	16G/ 16g	.	.	.	.	.	.	.	.	.	.	.	.	.
4r	.	16G/ 16g	.	4r	4ryy	.	4r	.	4r	.	4r	.	.	.	4r
.	.	16G/ 16g	.	.	.	.	.	.	.	.	.	.	.	.	.
.	.	16G/ 16g	.	.	.	.	.	.	.	.	.	.	.	.	.
.	.	16G/JJ 16g	.	.	.	.	.	.	.	.	.	.	.	.	.
*	*	*	*	*v	*v	*	*	*	*	*	*	*	*	*	*
!	!	!	!	!LO:LB:g=original	!	!	!	!	!	!	!	!	!	!
=62	=62	=62	=62	=62	=62	=62	=62	=62	=62	=62	=62	=62	=62	=62
*	*	*	*	*^	*	*	*	*	*	*	*	*	*	*
4r	.	16G/LLyy 16gyy	.	4r	4ryy	.	4r	.	4r	.	4r	.	2g\	2g\	4r
.	.	16G/ 16g	.	.	.	.	.	.	.	.	.	.	.	.	.
.	.	16G/ 16g	.	.	.	.	.	.	.	.	.	.	.	.	.
.	.	16G/ 16g	.	.	.	.	.	.	.	.	.	.	.	.	.
4d\	.	16G/ 16g	.	4ff/	4g\	.	4c\	{pa-	4c\	{pa-	4dd\	{pa-	.	.	4fff\
.	.	16G/ 16g	.	.	.	.	.	.	.	.	.	.	.	.	.
.	.	16G/ 16g	.	.	.	.	.	.	.	.	.	.	.	.	.
.	.	16G/JJ 16g	.	.	.	.	.	.	.	.	.	.	.	.	.
!	!	!	!	!	!	!	!	!	!	!	!	!	!	!	!LO:LB:g=original
=63	=63	=63	=63	=63	=63	=63	=63	=63	=63	=63	=63	=63	=63	=63	=63
4c\	.	16G/LLyy 16gyy	.	4ee/	4g\	.	4G\	-cem}	4G/	-cem}	4ee\	-cem}	2g\	2g\	4eee\
.	.	16G/ 16g	.	.	.	.	.	.	.	.	.	.	.	.	.
.	.	16G/ 16g	.	.	.	.	.	.	.	.	.	.	.	.	.
.	.	16G/ 16g	.	.	.	.	.	.	.	.	.	.	.	.	.
4r	.	16G/ 16g	.	4r	4r	.	4r	.	4r	.	4r	.	.	.	4r
.	.	16G/ 16g	.	.	.	.	.	.	.	.	.	.	.	.	.
.	.	16G/ 16g	.	.	.	.	.	.	.	.	.	.	.	.	.
.	.	16G/JJ 16g	.	.	.	.	.	.	.	.	.	.	.	.	.
!	!	!	!	!	!	!	!	!	!LO:LB:g=original	!	!	!	!	!	!
=64	=64	=64	=64	=64	=64	=64	=64	=64	=64	=64	=64	=64	=64	=64	=64
!	!	!LO:TX:a:t=vi-	!	!	!	!	!	!	!	!	!	!	!LO:TX:a:t=problem:brak t. 64	!	!
4r	.	16G/LLyy 16gyy	.	4r	4r	.	4r	.	4r	.	4r	.	2ryy	2g\	4r
.	.	16G/ 16g	.	.	.	.	.	.	.	.	.	.	.	.	.
.	.	16G/ 16g	.	.	.	.	.	.	.	.	.	.	.	.	.
.	.	16G/ 16g	.	.	.	.	.	.	.	.	.	.	.	.	.
4c\	.	16G/ 16g	.	4dd/	4g\	.	4d\	pa-	4d\	pa-	8dd\	Do-	.	.	4eee\
.	.	16G/ 16g	.	.	.	.	.	.	.	.	.	.	.	.	.
.	.	16G/ 16g	.	.	.	.	.	.	.	.	8dd\	-na	.	.	.
.	.	16G/JJ 16g	.	.	.	.	.	.	.	.	.	.	.	.	.
*	*	*Xtremolo	*	*	*	*	*	*	*	*	*	*	*	*	*
*	*	*	*	*v	*v	*	*	*	*	*	*	*	*	*	*
!LO:LB:g=original	!	!	!	!	!	!	!	!	!	!	!	!	!	!
=65	=65	=65	=65	=65	=65	=65	=65	=65	=65	=65	=65	=65	=65	=65
!	!	!LO:TX:a:t=-de	!	!	!	!	!	!	!	!	!	!	!	!
8E\L	.	16cc\L	.	16ee\LL	.	4c\	-cem	4c\	-cem,	4ee\	no-	4g\	4g\	2gg\
.	.	16dd\	.	16ff\	.	.	.	.	.	.	.	.	.	.
8E\	.	16ee\	.	16gg\	.	.	.	.	.	.	.	.	.	.
.	.	16ff\J	.	16gg\JJ	.	.	.	.	.	.	.	.	.	.
*	*	*tremolo	*	*tremolo	*	*	*	*	*	*	*	*	*	*
8C\	.	16ee\L	.	16gg\LL	.	8E\	Do-	8E/	do-	4gg\	-bis	4r	4r	.
.	.	16ee\	.	16gg\	.	.	.	.	.	.	.	.	.	.
8C\J	.	16ee\	.	16gg\	.	8E\	-na	8E/	-na	.	.	.	.	.
.	.	16ee\J	.	16gg\JJ	.	.	.	.	.	.	.	.	.	.
=66	=66	=66	=66	=66	=66	=66	=66	=66	=66	=66	=66	=66	=66	=66
!	!	!	!	!	!	!LO:TX:a:t=problem:skreślony takt	!	!	!	!	!	!	!	!
8E\L	.	16ee\LL	.	16gg\LL	.	4E\	pa-	4E/	no-	4gg\	pa-	4g\	4g\	2gg\
.	.	16ee\	.	16gg\	.	.	.	.	.	.	.	.	.	.
8E\	.	16ee\	.	16gg\	.	.	.	.	.	.	.	.	.	.
.	.	16ee\JJ	.	16gg\JJ	.	.	.	.	.	.	.	.	.	.
8C\	.	16dd\LL	.	16ff\LL	.	4E\	-cem	4E/	-bis	4gg\	-cem	4r	4r	.
.	.	16cc\	.	16ee\	.	.	.	.	.	.	.	.	.	.
!	!	!LO:TX:a:t=SIC:s=16bn	!	!	!	!	!	!	!	!	!	!	!	!
8C\J	.	16b-\	.	16dd\	.	.	.	.	.	.	.	.	.	.
.	.	16a\JJ	.	16cc\JJ	.	.	.	.	.	.	.	.	.	.
=67	=67	=67	=67	=67	=67	=67	=67	=67	=67	=67	=67	=67	=67	=67
!	!	!	!	!	!	!	!	!LO:TX:a:t=problem:skreślony takt	!	!	!	!	!	!
8F\L	.	16ff\LL	.	16aa\LL	.	4F\	do-	4F/	do-	4aa\	do-	4a\	4a\	2ccc\
.	.	16gg\	.	16bbn\	.	.	.	.	.	.	.	.	.	.
8F\	.	16aa\	.	16ccc\	.	.	.	.	.	.	.	.	.	.
.	.	16aa\JJ	.	16ccc\JJ	.	.	.	.	.	.	.	.	.	.
8C\	.	16aa\LL	.	16ccc\LL	.	4F\	-na	4F/	-na	4aa\	-na	4r	4r	.
.	.	16aa\	.	16ccc\	.	.	.	.	.	.	.	.	.	.
8C\J	.	16aa\	.	16ccc\	.	.	.	.	.	.	.	.	.	.
.	.	16aa\JJ	.	16ccc\JJ	.	.	.	.	.	.	.	.	.	.
!	!	!	!	!	!	!	!	!	!	!	!	!LO:LB:g=original	!	!
=68	=68	=68	=68	=68	=68	=68	=68	=68	=68	=68	=68	=68	=68	=68
8F\L	.	16aa\LL	.	16ccc\LL	.	4F\	No-	4F/	no-	4aa\	no-	4a\	4a\	2ccc\
.	.	16aa\	.	16ccc\	.	.	.	.	.	.	.	.	.	.
8F\	.	16aa\	.	16ccc\	.	.	.	.	.	.	.	.	.	.
.	.	16aa\JJ	.	16ccc\JJ	.	.	.	.	.	.	.	.	.	.
8C\	.	16gg\LL	.	16bbn\LL	.	4F\	-bis	4F/	-bis	4aa\	-bis	4r	4r	.
.	.	16ff\	.	16aa\	.	.	.	.	.	.	.	.	.	.
8C\J	.	16ee\	.	16gg\	.	.	.	.	.	.	.	.	.	.
.	.	16dd\JJ	.	16ff\JJ	.	.	.	.	.	.	.	.	.	.
!	!	!	!	!	!	!LO:LB:g=original	!	!	!	!	!	!	!LO:LB:g=original	!
=69	=69	=69	=69	=69	=69	=69	=69	=69	=69	=69	=69	=69	=69	=69
*	*	*	*	*	*	*2\right	*	*	*	*	*	*	*	*
8E\L	.	16cc\LL	.	16ee\LL	.	2G\	pa-	2G/	pa-	2ee\	pa-	4g\	4cc\	2ccc\
.	.	16dd\	.	16ff\	.	.	.	.	.	.	.	.	.	.
8E\	.	16ee\	.	16gg\	.	.	.	.	.	.	.	.	.	.
.	.	16ee\JJ	.	16gg\JJ	.	.	.	.	.	.	.	.	.	.
8F\	.	16dd\LL	.	16ff\LL	.	.	.	.	.	.	.	4r	4r	.
.	.	16cc\	.	16ee\	.	.	.	.	.	.	.	.	.	.
!	!	!LO:TX:a:t=SIC:s=16bn	!	!	!	!	!	!	!	!	!	!	!	!
8F\J	.	16b-\	.	16dd\	.	.	.	.	.	.	.	.	.	.
.	.	16a\JJ	.	16cc\JJ	.	.	.	.	.	.	.	.	.	.
=70	=70	=70	=70	=70	=70	=70	=70	=70	=70	=70	=70	=70	=70	=70
!LO:TX:a:t=problem:mixed beam	!	!LO:TX:a:t=SIC:s=16bn	!	!	!	!	!	!	!	!	!	!	!	!
8G\L	.	16b-\LL	.	16dd\LL	.	2GG/	-cem	2GG/	-cem,	2dd\	-cem	4g\	4bX\	2bbn\
.	.	16cc\	.	16ee\	.	.	.	.	.	.	.	.	.	.
8G\	.	16dd\	.	16ff\	.	.	.	.	.	.	.	.	.	.
.	.	16dd\JJ	.	16ff\JJ	.	.	.	.	.	.	.	.	.	.
8GG/	.	16cc\LL	.	16ee\LL	.	.	.	.	.	.	.	4r	4r	.
!	!	!LO:TX:a:t=SIC:s=16bn	!	!	!	!	!	!	!	!	!	!	!	!
.	.	16b-\	.	16dd\	.	.	.	.	.	.	.	.	.	.
8GG/J	.	16a\	.	16cc\	.	.	.	.	.	.	.	.	.	.
!	!	!LO:TX:a:t=problem:znak końca repetycji	!	!LO:TX:a:t=problem:znak końca repetycji	!	!	!	!	!	!	!	!	!	!
.	.	16g\JJ	.	16bn\JJ	.	.	.	.	.	.	.	.	.	.
!	!	!	!	!LO:LB:g=original	!	!	!	!	!	!	!	!	!	!
=71	=71	=71	=71	=71	=71	=71	=71	=71	=71	=71	=71	=71	=71	=71
!	!	!LO:TX:a:t=problem:powtórzenie tt. 65-70 oznaczone znakami repetycji	!	!LO:TX:a:t=problem:powtórzenie tt. 65-70 oznaczone znakami repetycji	!	!	!	!	!	!	!	!	!	!
8E\L	.	16cc\LLyy	.	16ee\LLyy	.	4E\	{Do-	4E/	{Do-	4ee\	do-	4g\	4g\	4ccc\
.	.	16dd\yy	.	16ff\yy	.	.	.	.	.	.	.	.	.	.
8E\	.	16ee\yy	.	16gg\yy	.	.	.	.	.	.	.	.	.	.
.	.	16ee\JJyy	.	16gg\JJyy	.	.	.	.	.	.	.	.	.	.
8C\	.	16ee\yyLL	.	16gg\yyLL	.	4E\	-na	4E/	-na	4gg\	-na	4r	4r	4r
.	.	16ee\yy	.	16gg\yy	.	.	.	.	.	.	.	.	.	.
8C\J	.	16ee\yy	.	16gg\yy	.	.	.	.	.	.	.	.	.	.
.	.	16ee\yyJJ	.	16gg\yyJJ	.	.	.	.	.	.	.	.	.	.
=72	=72	=72	=72	=72	=72	=72	=72	=72	=72	=72	=72	=72	=72	=72
8E\L	.	16ee\yyLL	.	16gg\yyLL	.	4E\	no-	4E/	no-	4gg\	no-	4g\	4g\	4r
.	.	16ee\yy	.	16gg\yy	.	.	.	.	.	.	.	.	.	.
8E\	.	16ee\yy	.	16gg\yy	.	.	.	.	.	.	.	.	.	.
.	.	16ee\yyJJ	.	16gg\yyJJ	.	.	.	.	.	.	.	.	.	.
8C\	.	16dd\LLyy	.	16ff\LLyy	.	4E\	-bis}	4E/	-bis}	4gg\	-bis	4r	4r	4ccc\
.	.	16cc\yy	.	16ee\yy	.	.	.	.	.	.	.	.	.	.
!	!	!LO:TX:a:t=SIC:s=16bn	!	!	!	!	!	!	!	!	!	!	!	!
8C\J	.	16b-\yy	.	16dd\yy	.	.	.	.	.	.	.	.	.	.
.	.	16a\JJyy	.	16cc\JJyy	.	.	.	.	.	.	.	.	.	.
!	!	!	!	!	!	!	!	!	!	!LO:LB:g=original	!	!	!	!
=73	=73	=73	=73	=73	=73	=73	=73	=73	=73	=73	=73	=73	=73	=73
8F\L	.	16ff\LLyy	.	16aa\LLyy	.	4F\	{Do-	4F/	{Do-	4aa\	{do-	4a\	4a\	4ddd\
.	.	16gg\yy	.	16bbn\yy	.	.	.	.	.	.	.	.	.	.
8F\	.	16aa\yy	.	16ccc\yy	.	.	.	.	.	.	.	.	.	.
.	.	16aa\JJyy	.	16ccc\JJyy	.	.	.	.	.	.	.	.	.	.
8C\	.	16aa\yyLL	.	16ccc\yyLL	.	4F\	-na	4F/	-na	4aa\	-na	4r	4r	4r
.	.	16aa\yy	.	16ccc\yy	.	.	.	.	.	.	.	.	.	.
8C\J	.	16aa\yy	.	16ccc\yy	.	.	.	.	.	.	.	.	.	.
.	.	16aa\yyJJ	.	16ccc\yyJJ	.	.	.	.	.	.	.	.	.	.
=74	=74	=74	=74	=74	=74	=74	=74	=74	=74	=74	=74	=74	=74	=74
8F\L	.	16aa\yyLL	.	16ccc\yyLL	.	4F\	no-	4F/	no-	4aa\	no-	4a\	4a\	4r
.	.	16aa\yy	.	16ccc\yy	.	.	.	.	.	.	.	.	.	.
8F\	.	16aa\yy	.	16ccc\yy	.	.	.	.	.	.	.	.	.	.
.	.	16aa\yyJJ	.	16ccc\yyJJ	.	.	.	.	.	.	.	.	.	.
8C\	.	16gg\LLyy	.	16bbn\LLyy	.	4F\	-bis}	4F/	-bis}	4aa\	-bis}	4r	4r	4bbn\
.	.	16ff\yy	.	16aa\yy	.	.	.	.	.	.	.	.	.	.
8C\J	.	16ee\yy	.	16gg\yy	.	.	.	.	.	.	.	.	.	.
.	.	16dd\JJyy	.	16ff\JJyy	.	.	.	.	.	.	.	.	.	.
=75	=75	=75	=75	=75	=75	=75	=75	=75	=75	=75	=75	=75	=75	=75
8E\L	.	16cc\LLyy	.	16ee\LLyy	.	2G\	pa-	2G/	pa-	2ee\	pa-	4g\	4cc\	4ccc\
.	.	16dd\yy	.	16ff\yy	.	.	.	.	.	.	.	.	.	.
8E\	.	16ee\yy	.	16gg\yy	.	.	.	.	.	.	.	.	.	.
.	.	16ee\JJyy	.	16gg\JJyy	.	.	.	.	.	.	.	.	.	.
8A\	.	16dd\LLyy	.	16ff\LLyy	.	.	.	.	.	.	.	4r	4r	4r
.	.	16cc\yy	.	16ee\yy	.	.	.	.	.	.	.	.	.	.
!	!	!LO:TX:a:t=SIC:s=16bn	!	!	!	!	!	!	!	!	!	!	!	!
8A\J	.	16b-\yy	.	16dd\yy	.	.	.	.	.	.	.	.	.	.
.	.	16a\JJyy	.	16cc\JJyy	.	.	.	.	.	.	.	.	.	.
=76	=76	=76	=76	=76	=76	=76	=76	=76	=76	=76	=76	=76	=76	=76
!	!	!LO:TX:a:t=SIC:s=16bn	!	!	!	!	!	!	!	!	!	!	!	!LO:TX:a:t=problem:brak taktów nr 76-81
8F\L	.	16b-\LLyy	.	16dd\LLyy	.	2GG/	.	2GG/	.	2dd\	.	4g\	4bX\	2ryy
.	.	16cc\yy	.	16ee\yy	.	.	.	.	.	.	.	.	.	.
8F\	.	16dd\yy	.	16ff\yy	.	.	.	.	.	.	.	.	.	.
.	.	16dd\JJyy	.	16ff\JJyy	.	.	.	.	.	.	.	.	.	.
8G\	.	16cc\LLyy	.	16ee\LLyy	.	.	.	.	.	.	.	4r	4r	.
!	!	!LO:TX:a:t=SIC:s=16bn	!	!	!	!	!	!	!	!	!	!	!	!
.	.	16b-\yy	.	16dd\yy	.	.	.	.	.	.	.	.	.	.
8G\J	.	16a\yy	.	16cc\yy	.	.	.	.	.	.	.	.	.	.
.	.	16g\JJyy	.	16bn\JJyy	.	.	.	.	.	.	.	.	.	.
!	!	!	!	!LO:LB:g=original	!	!	!	!	!	!	!	!	!	!
*	*	*	*	*Xtremolo	*	*	*	*	*	*	*	*	*	*
=77	=77	=77	=77	=77	=77	=77	=77	=77	=77	=77	=77	=77	=77	=77
4C/	.	16g/LL	.	4cc\	.	4C/	-cem	4C/	-cem	4cc\	-cem	2C/	2c/	2ryy
.	.	16g/	.	.	.	.	.	.	.	.	.	.	.	.
.	.	16g/	.	.	.	.	.	.	.	.	.	.	.	.
.	.	16g/	.	.	.	.	.	.	.	.	.	.	.	.
4r	.	16g/	.	4r	.	4r	.	4r	.	4r	.	.	.	.
.	.	16g/	.	.	.	.	.	.	.	.	.	.	.	.
.	.	16g/	.	.	.	.	.	.	.	.	.	.	.	.
.	.	16g/JJ	.	.	.	.	.	.	.	.	.	.	.	.
!LO:LB:g=original	!	!	!	!	!	!	!	!LO:LB:g=original	!	!	!	!	!	!
=78	=78	=78	=78	=78	=78	=78	=78	=78	=78	=78	=78	=78	=78	=78
4r	.	16g/LL	.	4r	.	4r	.	4r	.	4r	.	2C/	2c/	2ryy
.	.	16g/	.	.	.	.	.	.	.	.	.	.	.	.
.	.	16g/	.	.	.	.	.	.	.	.	.	.	.	.
.	.	16g/	.	.	.	.	.	.	.	.	.	.	.	.
4c\	.	16g/	.	4g/ 4ee 4ccc	.	4G\	pa-	4G/	pa-	4cc\	pa-	.	.	.
.	.	16g/	.	.	.	.	.	.	.	.	.	.	.	.
.	.	16g/	.	.	.	.	.	.	.	.	.	.	.	.
.	.	16g/JJ	.	.	.	.	.	.	.	.	.	.	.	.
=79	=79	=79	=79	=79	=79	=79	=79	=79	=79	=79	=79	=79	=79	=79
4d\	.	16g/LL	.	4g\ 4ff 4ddd	.	4G\	-cem	4G/	-cem	4dd\	-cem	2C/	2c/	2ryy
.	.	16g/	.	.	.	.	.	.	.	.	.	.	.	.
.	.	16g/	.	.	.	.	.	.	.	.	.	.	.	.
.	.	16g/	.	.	.	.	.	.	.	.	.	.	.	.
4r	.	16g/	.	4r	.	4r	.	4r	.	4r	.	.	.	.
.	.	16g/	.	.	.	.	.	.	.	.	.	.	.	.
.	.	16g/	.	.	.	.	.	.	.	.	.	.	.	.
.	.	16g/JJ	.	.	.	.	.	.	.	.	.	.	.	.
=80	=80	=80	=80	=80	=80	=80	=80	=80	=80	=80	=80	=80	=80	=80
4r	.	16g/LL	.	4r	.	4r	.	4r	.	4r	.	2C/	2c/	2ryy
.	.	16g/	.	.	.	.	.	.	.	.	.	.	.	.
.	.	16g/	.	.	.	.	.	.	.	.	.	.	.	.
.	.	16g/	.	.	.	.	.	.	.	.	.	.	.	.
4G\	.	16g/	.	4g\ 4dd 4bbn	.	4GG/	pa-	4GG/	pa-	4bn\	pa-	.	.	.
.	.	16g/	.	.	.	.	.	.	.	.	.	.	.	.
.	.	16g/	.	.	.	.	.	.	.	.	.	.	.	.
.	.	16g/JJ	.	.	.	.	.	.	.	.	.	.	.	.
!	!	!	!	!	!	!	!	!	!	!	!	!LO:LB:g=original	!	!
=81	=81	=81	=81	=81	=81	=81	=81	=81	=81	=81	=81	=81	=81	=81
4c\	.	16g/LL	.	4g\ 4ee 4ccc	.	4C/	-cem	4C/	-cem	4cc\	-cem	2C/	2c/	2ryy
.	.	16g/	.	.	.	.	.	.	.	.	.	.	.	.
.	.	16g/	.	.	.	.	.	.	.	.	.	.	.	.
.	.	16g/	.	.	.	.	.	.	.	.	.	.	.	.
4r	.	16g/	.	4r	.	4r	.	4r	.	4r	.	.	.	.
.	.	16g/	.	.	.	.	.	.	.	.	.	.	.	.
.	.	16g/	.	.	.	.	.	.	.	.	.	.	.	.
.	.	16g/JJ	.	.	.	.	.	.	.	.	.	.	.	.
=82	=82	=82	=82	=82	=82	=82	=82	=82	=82	=82	=82	=82	=82	=82
4r	.	16g/LL	.	4r	.	4r	.	4r	.	4r	.	2C/	2c/	4r
.	.	16g/	.	.	.	.	.	.	.	.	.	.	.	.
.	.	16g/	.	.	.	.	.	.	.	.	.	.	.	.
.	.	16g/	.	.	.	.	.	.	.	.	.	.	.	.
4c\	.	16g/	.	4g\ 4ee 4ccc	.	4G\	{pa-	4G/	{pa-	4cc\	{pa-	.	.	4ccc\
.	.	16g/	.	.	.	.	.	.	.	.	.	.	.	.
.	.	16g/	.	.	.	.	.	.	.	.	.	.	.	.
.	.	16g/JJ	.	.	.	.	.	.	.	.	.	.	.	.
!	!	!	!	!	!	!	!	!	!	!	!	!	!	!LO:LB:g=original
=83	=83	=83	=83	=83	=83	=83	=83	=83	=83	=83	=83	=83	=83	=83
4d\	.	16g/LL	.	4g\ 4ff 4ddd	.	4G\	-cem}	4G/	-cem}	4dd\	-cem}	2C/	2c/	4ddd\
.	.	16g/	.	.	.	.	.	.	.	.	.	.	.	.
.	.	16g/	.	.	.	.	.	.	.	.	.	.	.	.
.	.	16g/	.	.	.	.	.	.	.	.	.	.	.	.
4r	.	16g/	.	4r	.	4r	.	4r	.	4r	.	.	.	4r
.	.	16g/	.	.	.	.	.	.	.	.	.	.	.	.
.	.	16g/	.	.	.	.	.	.	.	.	.	.	.	.
.	.	16g/JJ	.	.	.	.	.	.	.	.	.	.	.	.
=84	=84	=84	=84	=84	=84	=84	=84	=84	=84	=84	=84	=84	=84	=84
!	!	!LO:TX:a:t=re-	!	!	!	!	!	!	!	!	!	!	!	!
4r	.	16g/LL	.	4r	.	4r	.	4r	.	4r	.	2C/	2c/	4r
.	.	16g/	.	.	.	.	.	.	.	.	.	.	.	.
.	.	16g/	.	.	.	.	.	.	.	.	.	.	.	.
.	.	16g/	.	.	.	.	.	.	.	.	.	.	.	.
4G\	.	16g/	.	4g\ 4dd 4bbn	.	4C/	da	4C/	da	4bn\	da	.	.	4bbn\
.	.	16g/	.	.	.	.	.	.	.	.	.	.	.	.
.	.	16g/	.	.	.	.	.	.	.	.	.	.	.	.
.	.	16g/JJ	.	.	.	.	.	.	.	.	.	.	.	.
!	!	!LO:LB:g=original	!	!	!	!	!	!	!	!	!	!	!LO:LB:g=original	!
=85	=85	=85	=85	=85	=85	=85	=85	=85	=85	=85	=85	=85	=85	=85
*	*	*^	*	*	*	*	*	*	*	*	*	*	*	*
!	!	!LO:TX:a:t=-tro	!	!	!	!	!	!	!	!	!	!	!	!	!
4C/	.	4ee/	4cc\	.	4g\ 4ee 4ccc	.	2C/	pa-	2C/	pa-	4cc\	pa-	4C/	4c/	4ccc\
4C/	.	4ee/	4cc\	.	4g\ 4ee 4ccc	.	.	.	.	.	4cc\	.	4C/	4c/	4eee\
=86	=86	=86	=86	=86	=86	=86	=86	=86	=86	=86	=86	=86	=86	=86	=86
4C/	.	4ee/	4cc\	.	4g\ 4ee 4ccc	.	4C/	-cem	4C/	-cem	4cc\	-cem	4C/	4c/	4eee\
4r	.	4r	4ryy	.	4r	.	4r	.	4r	.	4r	.	4r	4r	4r
*	*	*v	*v	*	*	*	*	*	*	*	*	*	*	*	*
!	!	!	!	!	!	!	!	!	!	!LO:LB:g=original	!	!	!	!
=87	=87	=87	=87	=87	=87	=87	=87	=87	=87	=87	=87	=87	=87	=87
*tremolo	*	*	*	*	*	*	*	*	*	*	*	*	*	*
!	!	!	!	!	!	!	!	!	!	!	!	!LO:TX:a:t=8.	!LO:TX:a:t=8.	!LO:TX:a:t=8.
!	!LO:DY:t=p:	!	!LO:DY:t=p:	!	!LO:DY:t=p:	!LO:N:vis=00	!	!LO:N:vis=00	!	!	!	!LO:N:vis=00	!LO:N:vis=00	!LO:N:vis=00
8F\L	p	8a/L	p	4.cc\	p	0r	.	0r	.	4.cc\	Do-	0r	0r	0r
8F\	.	8a/	.	.	.	.	.	.	.	.	.	.	.	.
8F\	.	8a/	.	.	.	.	.	.	.	.	.	.	.	.
8F\J	.	8a/J	.	8dd\	.	.	.	.	.	8dd\	-na	.	.	.
=88	=88	=88	=88	=88	=88	=88	=88	=88	=88	=88	=88	=88	=88	=88
8F\L	.	8a/L	.	(8dd\L	.	.	.	.	.	8dd\L	no-	.	.	.
8F\	.	8a/	.	8cc\)	.	.	.	.	.	8cc\J	.	.	.	.
8F\	.	8a/	.	8b-'\	.	.	.	.	.	8b-\L	-bis	.	.	.
8F\J	.	8a/J	.	8a'\J	.	.	.	.	.	8a\J	.	.	.	.
!	!	!LO:LB:g=original	!	!	!	!	!	!	!	!	!	!	!	!
=89	=89	=89	=89	=89	=89	=89	=89	=89	=89	=89	=89	=89	=89	=89
8C\L	.	8b-/L	.	(8gg\L	.	.	.	.	.	8gg\L	pa-	.	.	.
8C\	.	8b-/	.	8ff\)	.	.	.	.	.	8ff\	.	.	.	.
8C\	.	8b-/	.	8ee'\	.	.	.	.	.	8ee\	.	.	.	.
8C\J	.	8b-/J	.	8dd'\J	.	.	.	.	.	8dd\J	.	.	.	.
=90	=90	=90	=90	=90	=90	=90	=90	=90	=90	=90	=90	=90	=90	=90
.	.	.	.	.	.	.	.	.	.	8qqdd/	.	.	.	.
8F\L	.	8a/L	.	(4dd\	.	.	.	.	.	4.cc\	-cem	.	.	.
8F\	.	8a/	.	.	.	.	.	.	.	.	.	.	.	.
8F\	.	8a/	.	4cc\)	.	.	.	.	.	.	.	.	.	.
8F\J	.	8a/J	.	.	.	.	.	.	.	8a\	da	.	.	.
=91	=91	=91	=91	=91	=91	=91	=91	=91	=91	=91	=91	=91	=91	=91
!	!	!	!	!	!	!LO:N:vis=00	!	!LO:N:vis=00	!	!	!	!LO:N:vis=00	!LO:N:vis=00	!LO:N:vis=00
8C\L	.	8g/L	.	4.b-\	.	0r	.	0r	.	4.b-\	Do-	0r	0r	0r
8C\	.	8g/	.	.	.	.	.	.	.	.	.	.	.	.
8C\	.	8g/	.	.	.	.	.	.	.	.	.	.	.	.
8C\J	.	8g/J	.	8dd\	.	.	.	.	.	8dd\	-na	.	.	.
=92	=92	=92	=92	=92	=92	=92	=92	=92	=92	=92	=92	=92	=92	=92
8C\L	.	8g/L	.	(8dd\L	.	.	.	.	.	8dd\L	no-	.	.	.
8C\	.	8g/	.	8cc\)	.	.	.	.	.	8cc\	.	.	.	.
8C\	.	8g/	.	(8cc\	.	.	.	.	.	8cc\	.	.	.	.
8C\J	.	8g/J	.	8b-\J)	.	.	.	.	.	8b-\J	.	.	.	.
=93	=93	=93	=93	=93	=93	=93	=93	=93	=93	=93	=93	=93	=93	=93
8C\L	.	8g/L	.	8a/L	.	.	.	.	.	8a\L	.	.	.	.
8C\	.	8g/	.	8f/	.	.	.	.	.	8f\	.	.	.	.
8C\	.	8g/	.	8cc/	.	.	.	.	.	8cc\	.	.	.	.
8C\J	.	8g/J	.	8a/J	.	.	.	.	.	8a\J	-bis	.	.	.
!LO:LB:g=original	!	!	!	!	!	!	!	!	!	!	!	!	!	!
=94	=94	=94	=94	=94	=94	=94	=94	=94	=94	=94	=94	=94	=94	=94
!	!LO:DY:t=for	!	!	!	!	!	!	!	!	!	!	!	!	!
8F\L	f	8a/L	.	4a/	.	.	.	.	.	4a\	pa-	.	.	.
8F\	.	8a/	.	.	.	.	.	.	.	.	.	.	.	.
8F\	.	8a/	.	4g/	.	.	.	.	.	4g\	-cem	.	.	.
8F\J	.	8a/J	.	.	.	.	.	.	.	.	.	.	.	.
=95	=95	=95	=95	=95	=95	=95	=95	=95	=95	=95	=95	=95	=95	=95
*	*	*^	*	*	*	*	*	*	*	*	*	*	*	*
*	*	*tremolo	*tremolo	*	*	*	*	*	*	*	*	*	*	*	*
!	!	!	!	!LO:DY:t=for	!	!	!	!	!	!	!	!	!	!	!
8F\L	.	16a/LL	16f\LL	f	4.A/ 4.f 4.cc	.	4F\	Do-	4F/	Do-	4.cc\	Do-	2F/	2f\	2ccc\
.	.	16a/	16f\	.	.	.	.	.	.	.	.	.	.	.	.
8F\	.	16a/	16f\	.	.	.	.	.	.	.	.	.	.	.	.
.	.	16a/	16f\	.	.	.	.	.	.	.	.	.	.	.	.
8F\	.	16a/	16f\	.	.	.	4A\	-na	4A/	-na	.	.	.	.	.
.	.	16a/	16f\	.	.	.	.	.	.	.	.	.	.	.	.
8F\J	.	16a/	16f\	.	8dd\	.	.	.	.	.	8dd\	-na	.	.	.
.	.	16a/JJ	16f\JJ	.	.	.	.	.	.	.	.	.	.	.	.
=96	=96	=96	=96	=96	=96	=96	=96	=96	=96	=96	=96	=96	=96	=96	=96
8F\L	.	16a/LL	16f\LL	.	(8dd\L	.	4F\	No-	4F/	No-	8dd\L	no-	2F/	2f\	2ddd\
.	.	16a/	16f\	.	.	.	.	.	.	.	.	.	.	.	.
8F\	.	16a/	16f\	.	8cc\)	.	.	.	.	.	8cc\J	.	.	.	.
.	.	16a/	16f\	.	.	.	.	.	.	.	.	.	.	.	.
8F\	.	16a/	16f\	.	8b-'\	.	4A\	-bis	4A/	-bis	8b-\L	-bis	.	.	.
.	.	16a/	16f\	.	.	.	.	.	.	.	.	.	.	.	.
8F\J	.	16a/	16f\	.	8a'\J	.	.	.	.	.	8a\J	.	.	.	.
.	.	16a/JJ	16f\JJ	.	.	.	.	.	.	.	.	.	.	.	.
=97	=97	=97	=97	=97	=97	=97	=97	=97	=97	=97	=97	=97	=97	=97	=97
8C\L	.	16b-/LL	16g\LL	.	(8gg\L	.	4c\	pa-	4c\	pa-	8gg\L	pa-	2F/	2f\	2eee\
.	.	16b-/	16g\	.	.	.	.	.	.	.	.	.	.	.	.
8C\	.	16b-/	16g\	.	8ff\)	.	.	.	.	.	8ff\	.	.	.	.
.	.	16b-/	16g\	.	.	.	.	.	.	.	.	.	.	.	.
8C\	.	16b-/	16g\	.	8ee'\	.	4e\	-cem	4e\	-cem	8ee\	.	.	.	.
.	.	16b-/	16g\	.	.	.	.	.	.	.	.	.	.	.	.
8C\J	.	16b-/	16g\	.	8dd'\J	.	.	.	.	.	8dd\J	.	.	.	.
.	.	16b-/JJ	16g\JJ	.	.	.	.	.	.	.	.	.	.	.	.
!	!	!	!	!	!	!	!	!	!	!	!LO:LB:g=original	!	!	!	!
=98	=98	=98	=98	=98	=98	=98	=98	=98	=98	=98	=98	=98	=98	=98	=98
*	*	*	*tremolo	*	*	*	*	*	*	*	*	*	*	*	*
8F\L	.	16a/LL	16f\LL	.	4dd\	.	4f\	{pa-	4f\	{pa-	4cc\	-cem	2F/	2f\	2fff\
.	.	16a/	16f\	.	.	.	.	.	.	.	.	.	.	.	.
8F\	.	16a/	16f\	.	.	.	.	.	.	.	.	.	.	.	.
.	.	16a/	16f\	.	.	.	.	.	.	.	.	.	.	.	.
8F\	.	16a/	16f\	.	4cc\	.	4F\	-cem}	4F/	-cem}	4r	.	.	.	.
.	.	16a/	16f\	.	.	.	.	.	.	.	.	.	.	.	.
8F\J	.	16a/	16f\	.	.	.	.	.	.	.	.	.	.	.	.
.	.	16a/JJ	16f\JJ	.	.	.	.	.	.	.	.	.	.	.	.
*	*	*Xtremolo	*Xtremolo	*	*	*	*	*	*	*	*	*	*	*	*
*	*	*v	*v	*	*	*	*	*	*	*	*	*	*	*	*
=99	=99	=99	=99	=99	=99	=99	=99	=99	=99	=99	=99	=99	=99	=99
*	*	*tremolo	*	*	*	*	*	*	*	*	*	*	*	*
8A\L	.	16gg\LL	.	16bb-\LL	.	4C\	Do-	4C/	Do-	4.bb-\	Do-	4g\	4b-\	2eee\
.	.	16gg\	.	16bb-\	.	.	.	.	.	.	.	.	.	.
8A\	.	16gg\	.	16bb-\	.	.	.	.	.	.	.	.	.	.
.	.	16gg\JJ	.	16bb-\JJ	.	.	.	.	.	.	.	.	.	.
*	*	*	*	*tremolo	*	*	*	*	*	*	*	*	*	*
8A\	.	16ee\LL	.	16gg\LL	.	4G\	-na	4G/	-na	.	.	4c\	4g\	.
.	.	16ee\	.	16gg\	.	.	.	.	.	.	.	.	.	.
8A\J	.	16ee\	.	16gg\	.	.	.	.	.	8gg\	-na	.	.	.
.	.	16ee\JJ	.	16gg\JJ	.	.	.	.	.	.	.	.	.	.
!	!	!	!	!	!	!	!	!LO:LB:g=original	!	!	!	!	!	!
=100	=100	=100	=100	=100	=100	=100	=100	=100	=100	=100	=100	=100	=100	=100
8B-\L	.	16ff\LL	.	16aa\LL	.	4F\	No-	4F/	no-	4aa\	no-	4f\	4a\	2fff\
.	.	16ff\	.	16aa\	.	.	.	.	.	.	.	.	.	.
8B-\	.	16ff\	.	16aa\	.	.	.	.	.	.	.	.	.	.
.	.	16ff\JJ	.	16aa\JJ	.	.	.	.	.	.	.	.	.	.
8B-\	.	16cc\LL	.	16ff\LL	.	4A\	-bis	4A/	-bis	4ff\	-bis	4c\	4f\	.
.	.	16cc\	.	16ff\	.	.	.	.	.	.	.	.	.	.
8B-\J	.	16cc\	.	16ff\	.	.	.	.	.	.	.	.	.	.
.	.	16cc\JJ	.	16ff\JJ	.	.	.	.	.	.	.	.	.	.
*Xtremolo	*	*	*	*	*	*	*	*	*	*	*	*	*	*
*Xtremolo	*	*	*	*	*	*	*	*	*	*	*	*	*	*
=101	=101	=101	=101	=101	=101	=101	=101	=101	=101	=101	=101	=101	=101	=101
4c\	.	16b-\LL	.	16gg\LL	.	4B-\	pa-	4B-\	pa-	2ee\	pa-	2c/	2g\	2eee\
.	.	16b-\	.	16gg\	.	.	.	.	.	.	.	.	.	.
.	.	16b-\	.	16gg\	.	.	.	.	.	.	.	.	.	.
.	.	16b-\JJ	.	16gg\JJ	.	.	.	.	.	.	.	.	.	.
4C/	.	16g\LL	.	16ee\LL	.	4c\	.	4c\	.	.	.	.	.	.
.	.	16g\	.	16ee\	.	.	.	.	.	.	.	.	.	.
.	.	16g\	.	16ee\	.	.	.	.	.	.	.	.	.	.
.	.	16g\JJ	.	16ee\JJ	.	.	.	.	.	.	.	.	.	.
*	*	*	*	*Xtremolo	*	*	*	*	*	*	*	*	*	*
=102	=102	=102	=102	=102	=102	=102	=102	=102	=102	=102	=102	=102	=102	=102
4F\	.	4a/	.	4ff\	.	4F\	-cem	4F/	-cem	4ff\	-cem	4A/	4f\	4fff\
4r	.	4r	.	4r	.	4r	.	4r	.	4r	.	4r	4r	4r
=103	=103	=103	=103	=103	=103	=103	=103	=103	=103	=103	=103	=103	=103	=103
!	!	!	!	!	!	!	!	!	!	!	!	!LO:TX:a:t=4.	!LO:TX:a:t=4.	!
!	!	!	!	!	!	!	!	!	!	!	!	!LO:N:vis=00	!LO:N:vis=00	!
8F\L	.	16cc\LL	.	16f\LL	.	4A\	Do-	4A/	Do-	2ee-X\	Do-	0r	0r	2eee-X\
.	.	16cc\	.	16ee-X\	.	.	.	.	.	.	.	.	.	.
8c\	.	16cc\	.	16ee-\	.	.	.	.	.	.	.	.	.	.
.	.	16cc\	.	16ee-\JJ	.	.	.	.	.	.	.	.	.	.
*	*	*	*	*tremolo	*	*	*	*	*	*	*	*	*	*
8A\	.	16cc\	.	16ee-\LL	.	4F\	-na	4F/	-na	.	.	.	.	.
.	.	16cc\	.	16ee-\	.	.	.	.	.	.	.	.	.	.
8F\J	.	16cc\	.	16ee-\	.	.	.	.	.	.	.	.	.	.
.	.	16cc\JJ	.	16ee-\JJ	.	.	.	.	.	.	.	.	.	.
=104	=104	=104	=104	=104	=104	=104	=104	=104	=104	=104	=104	=104	=104	=104
*	*	*	*	*2\right	*	*	*	*	*	*	*	*	*	*
8B-\L	.	16b-\LL	.	16dd\LL	.	4B-\	No-	4B-\	no-	2dd\	-na	.	.	2ddd\
.	.	16b-\	.	16dd\	.	.	.	.	.	.	.	.	.	.
8F\	.	16b-\	.	16dd\	.	.	.	.	.	.	.	.	.	.
.	.	16b-\	.	16dd\	.	.	.	.	.	.	.	.	.	.
8D\	.	16b-\	.	16dd\	.	4BB-/	-bis	4BB-/	-bis	.	.	.	.	.
.	.	16b-\	.	16dd\	.	.	.	.	.	.	.	.	.	.
8BB-\J	.	16b-\	.	16dd\	.	.	.	.	.	.	.	.	.	.
.	.	16b-\JJ	.	16dd\JJ	.	.	.	.	.	.	.	.	.	.
=105	=105	=105	=105	=105	=105	=105	=105	=105	=105	=105	=105	=105	=105	=105
8G\L	.	16dd\LL	.	16ff\LL	.	4Bn\	{Do-	4Bn\	{Do-	2ff\	no-	.	.	2fff\
.	.	16dd\	.	16ff\	.	.	.	.	.	.	.	.	.	.
8d\	.	16dd\	.	16ff\	.	.	.	.	.	.	.	.	.	.
.	.	16dd\	.	16ff\	.	.	.	.	.	.	.	.	.	.
8Bn\	.	16dd\	.	16ff\	.	4G\	-na	4G/	-na	.	.	.	.	.
.	.	16dd\	.	16ff\	.	.	.	.	.	.	.	.	.	.
8G\J	.	16dd\	.	16ff\	.	.	.	.	.	.	.	.	.	.
.	.	16dd\JJ	.	16ff\JJ	.	.	.	.	.	.	.	.	.	.
!	!	!LO:LB:g=original	!	!	!	!	!	!	!	!	!	!	!	!
=106	=106	=106	=106	=106	=106	=106	=106	=106	=106	=106	=106	=106	=106	=106
8c\L	.	16cc\LL	.	16een\LL	.	4c\	No-	4c\	no-	2een\	-bis	.	.	2eeen\
.	.	16cc\	.	16een\	.	.	.	.	.	.	.	.	.	.
8G\	.	16cc\	.	16een\	.	.	.	.	.	.	.	.	.	.
.	.	16cc\	.	16een\	.	.	.	.	.	.	.	.	.	.
8E\	.	16cc\	.	16een\	.	4C/	-bis}	4C/	-bis}	.	.	.	.	.
.	.	16cc\	.	16een\	.	.	.	.	.	.	.	.	.	.
8C\J	.	16cc\	.	16een\	.	.	.	.	.	.	.	.	.	.
.	.	16cc\JJ	.	16een\JJ	.	.	.	.	.	.	.	.	.	.
!	!	!	!	!	!	!	!	!	!	!	!	!LO:LB:g=original	!	!
=107	=107	=107	=107	=107	=107	=107	=107	=107	=107	=107	=107	=107	=107	=107
8C\L	.	16gg\LL	.	16bb-X\LL	.	2F\	pa-	2F/	pa-	2gg\	pa-	2g\	2a\	2bb-X\
.	.	16gg\	.	16bb-X\	.	.	.	.	.	.	.	.	.	.
8G\	.	16gg\	.	16bb-X\	.	.	.	.	.	.	.	.	.	.
.	.	16gg\	.	16bb-X\	.	.	.	.	.	.	.	.	.	.
8E\	.	16gg\	.	16bb-X\	.	.	.	.	.	.	.	.	.	.
.	.	16gg\	.	16bb-X\	.	.	.	.	.	.	.	.	.	.
8C\J	.	16gg\	.	16bb-X\	.	.	.	.	.	.	.	.	.	.
.	.	16gg\JJ	.	16bb-X\JJ	.	.	.	.	.	.	.	.	.	.
=108	=108	=108	=108	=108	=108	=108	=108	=108	=108	=108	=108	=108	=108	=108
8F\L	.	16ff\LL	.	16aa\LL	.	2F\	.	2F/	.	2ff\	.	2f\	2a\	2aa\
.	.	16ff\	.	16aa\	.	.	.	.	.	.	.	.	.	.
8C\	.	16ff\	.	16aa\	.	.	.	.	.	.	.	.	.	.
.	.	16ff\	.	16aa\	.	.	.	.	.	.	.	.	.	.
8AA\	.	16ff\	.	16aa\	.	.	.	.	.	.	.	.	.	.
.	.	16ff\	.	16aa\	.	.	.	.	.	.	.	.	.	.
8FF\J	.	16ff\	.	16aa\	.	.	.	.	.	.	.	.	.	.
.	.	16ff\JJ	.	16aa\JJ	.	.	.	.	.	.	.	.	.	.
!LO:LB:g=original	!	!	!	!	!	!	!	!	!	!	!	!	!	!
=109	=109	=109	=109	=109	=109	=109	=109	=109	=109	=109	=109	=109	=109	=109
4C/	.	16cc\LL	.	4gg\	.	4C/	-cem	4C/	-cem	4ee\	-cem	2c/	2g\	4gg\
.	.	16cc\	.	.	.	.	.	.	.	.	.	.	.	.
.	.	16cc\	.	.	.	.	.	.	.	.	.	.	.	.
.	.	16cc\	.	.	.	.	.	.	.	.	.	.	.	.
!	!	!	!	!	!	!	!	!LO:TX:a:t=problem:pogrubiona kreska taktowa	!	!	!	!	!	!
4r	.	16cc\	.	4r	.	4r	.	4r	.	4r	.	.	.	4r
.	.	16cc\	.	.	.	.	.	.	.	.	.	.	.	.
.	.	16cc\	.	.	.	.	.	.	.	.	.	.	.	.
.	.	16cc\JJ	.	.	.	.	.	.	.	.	.	.	.	.
!	!	!	!	!LO:LB:g=original	!	!	!	!	!	!	!	!	!	!
=110	=110	=110	=110	=110	=110	=110	=110	=110	=110	=110	=110	=110	=110	=110
*	*	*	*	*^	*	*	*	*	*	*	*	*	*	*
4r	.	16cc\LL	.	4r	4ryy	.	4r	.	4r	.	4r	.	2c/	2g\	4r
.	.	16cc\	.	.	.	.	.	.	.	.	.	.	.	.	.
.	.	16cc\	.	.	.	.	.	.	.	.	.	.	.	.	.
.	.	16cc\	.	.	.	.	.	.	.	.	.	.	.	.	.
!	!	!	!	!	!	!	!	!	!LO:TX:a:t=SIC:s=4E	!	!	!	!	!	!
4C/	.	16cc\	.	4cc/ 4ee	4g\	.	4E\	pa-	4F/	pa-	4ee\	pa-	.	.	4ee\
.	.	16cc\	.	.	.	.	.	.	.	.	.	.	.	.	.
.	.	16cc\	.	.	.	.	.	.	.	.	.	.	.	.	.
.	.	16cc\JJ	.	.	.	.	.	.	.	.	.	.	.	.	.
!	!	!	!	!	!	!	!	!	!	!	!	!	!	!	!LO:LB:g=original
=111	=111	=111	=111	=111	=111	=111	=111	=111	=111	=111	=111	=111	=111	=111	=111
4F\	.	16cc\LL	.	4ff/	4a\	.	4C/	-cem	4C/	-cem	4ff\	-cem	2f\	2a\	4ff\
.	.	16cc\	.	.	.	.	.	.	.	.	.	.	.	.	.
.	.	16cc\	.	.	.	.	.	.	.	.	.	.	.	.	.
.	.	16cc\	.	.	.	.	.	.	.	.	.	.	.	.	.
4r	.	16cc\	.	4r	4ryy	.	4r	.	4r	.	4r	.	.	.	4r
.	.	16cc\	.	.	.	.	.	.	.	.	.	.	.	.	.
.	.	16cc\	.	.	.	.	.	.	.	.	.	.	.	.	.
.	.	16cc\JJ	.	.	.	.	.	.	.	.	.	.	.	.	.
*	*	*	*	*v	*v	*	*	*	*	*	*	*	*	*	*
!	!	!	!	!	!	!	!	!	!	!LO:LB:g=original	!	!	!	!
=112	=112	=112	=112	=112	=112	=112	=112	=112	=112	=112	=112	=112	=112	=112
4r	.	16cc\LL	.	4r	.	4r	.	4r	.	4r	.	2f\	2a\	4r
.	.	16cc\	.	.	.	.	.	.	.	.	.	.	.	.
.	.	16cc\	.	.	.	.	.	.	.	.	.	.	.	.
.	.	16cc\	.	.	.	.	.	.	.	.	.	.	.	.
4F\	.	16cc\	.	4a/ 4ff	.	4C/	pa-	4C/	pa-	4ff\	pa-	.	.	4fff\
.	.	16cc\	.	.	.	.	.	.	.	.	.	.	.	.
.	.	16cc\	.	.	.	.	.	.	.	.	.	.	.	.
.	.	16cc\JJ	.	.	.	.	.	.	.	.	.	.	.	.
!	!	!	!	!	!	!	!	!LO:LB:g=original	!	!	!	!	!LO:LB:g=original	!
=113	=113	=113	=113	=113	=113	=113	=113	=113	=113	=113	=113	=113	=113	=113
!	!	!	!	!	!	!	!	!LO:TX:a:t=problem:znak początku/końca repetycji	!	!	!	!	!	!
4C/	.	16cc\LL	.	4e/ 4cc 4gg	.	4F\	-cem	4F/	-cem	4gg\	-cem	2g\	2b-\	4ggg\
.	.	16cc\	.	.	.	.	.	.	.	.	.	.	.	.
.	.	16cc\	.	.	.	.	.	.	.	.	.	.	.	.
.	.	16cc\	.	.	.	.	.	.	.	.	.	.	.	.
4r	.	16cc\	.	4r	.	4r	.	4r	.	4r	.	.	.	4r
.	.	16cc\	.	.	.	.	.	.	.	.	.	.	.	.
.	.	16cc\	.	.	.	.	.	.	.	.	.	.	.	.
.	.	16cc\JJ	.	.	.	.	.	.	.	.	.	.	.	.
=114	=114	=114	=114	=114	=114	=114	=114	=114	=114	=114	=114	=114	=114	=114
!	!	!	!	!	!	!LO:TX:a:t=problem:powtórzenie t. 113 oznaczone znakami repetycji	!	!LO:TX:a:t=problem:powtórzenie t. 113 oznaczone znakami repetycji	!	!	!	!	!	!
4r	.	16cc\LL	.	4r	.	4F\yy	{cem}	4F/yy	{cem}	4r	.	2g\	2b-\	4r
.	.	16cc\	.	.	.	.	.	.	.	.	.	.	.	.
.	.	16cc\	.	.	.	.	.	.	.	.	.	.	.	.
.	.	16cc\	.	.	.	.	.	.	.	.	.	.	.	.
4C/	.	16cc\	.	4gg\	.	4ryy	.	4ryy	.	4gg\	pa-	.	.	4eee\
.	.	16cc\	.	.	.	.	.	.	.	.	.	.	.	.
.	.	16cc\	.	.	.	.	.	.	.	.	.	.	.	.
.	.	16cc\JJ	.	.	.	.	.	.	.	.	.	.	.	.
!	!	!	!	!	!	!LO:LB:g=original	!	!	!	!	!	!	!	!
=115	=115	=115	=115	=115	=115	=115	=115	=115	=115	=115	=115	=115	=115	=115
8A\L	.	16aa\LL	.	16aa\LL	.	2A\	pa-	2A/	pa-	2ff\	.	2a\	2cc\	4fff\
.	.	16aa\	.	16bb-\	.	.	.	.	.	.	.	.	.	.
8A\	.	16aa\	.	16ccc\	.	.	.	.	.	.	.	.	.	.
.	.	16aa\	.	16ccc\JJ	.	.	.	.	.	.	.	.	.	.
8F\	.	16aa\	.	16ccc\LL	.	.	.	.	.	.	.	.	.	4r
.	.	16aa\	.	16ccc\	.	.	.	.	.	.	.	.	.	.
8F\J	.	16aa\	.	16ccc\	.	.	.	.	.	.	.	.	.	.
.	.	16aa\JJ	.	16ccc\JJ	.	.	.	.	.	.	.	.	.	.
=116	=116	=116	=116	=116	=116	=116	=116	=116	=116	=116	=116	=116	=116	=116
8A\L	.	16aa\LL	.	4ccc\	.	2F\	-cem	2F/	-cem	2ff\	-cem	2a\	2cc\	2ccc\
.	.	16aa\	.	.	.	.	.	.	.	.	.	.	.	.
8A\	.	16aa\	.	.	.	.	.	.	.	.	.	.	.	.
.	.	16aa\	.	.	.	.	.	.	.	.	.	.	.	.
8F\	.	16aa\	.	16bb-\LL	.	.	.	.	.	.	.	.	.	.
.	.	16aa\	.	16aa\	.	.	.	.	.	.	.	.	.	.
8F\J	.	16aa\	.	16gg\	.	.	.	.	.	.	.	.	.	.
.	.	16aa\JJ	.	16ff\JJ	.	.	.	.	.	.	.	.	.	.
=117	=117	=117	=117	=117	=117	=117	=117	=117	=117	=117	=117	=117	=117	=117
8B-\L	.	16ddd\LL	.	16ddd\LL	.	2B-\	{pa-	2B-\	{pa-	2bb-\	Do-	2b-\	2dd\	2ddd\
.	.	16ddd\	.	16eee\	.	.	.	.	.	.	.	.	.	.
8B-\	.	16ddd\	.	16fff\	.	.	.	.	.	.	.	.	.	.
.	.	16ddd\	.	16fff\JJ	.	.	.	.	.	.	.	.	.	.
8F\	.	16ddd\	.	16fff\LL	.	.	.	.	.	.	.	.	.	.
.	.	16ddd\	.	16fff\	.	.	.	.	.	.	.	.	.	.
8F\J	.	16ddd\	.	16fff\	.	.	.	.	.	.	.	.	.	.
.	.	16ddd\JJ	.	16fff\JJ	.	.	.	.	.	.	.	.	.	.
=118	=118	=118	=118	=118	=118	=118	=118	=118	=118	=118	=118	=118	=118	=118
8B-\L	.	16ddd\LL	.	16fff\LL	.	2F\	-cem}	2F/	-cem}	2gg\	-na	2b-\	2dd\	2bb-\
.	.	16ddd\	.	16fff\	.	.	.	.	.	.	.	.	.	.
8B-\	.	16ddd\	.	16fff\	.	.	.	.	.	.	.	.	.	.
.	.	16ddd\	.	16fff\JJ	.	.	.	.	.	.	.	.	.	.
8F\	.	16ddd\	.	16eee\LL	.	.	.	.	.	.	.	.	.	.
.	.	16ddd\	.	16ddd\	.	.	.	.	.	.	.	.	.	.
8F\J	.	16ddd\	.	16ccc\	.	.	.	.	.	.	.	.	.	.
.	.	16ddd\JJ	.	16bb-\JJ	.	.	.	.	.	.	.	.	.	.
=119	=119	=119	=119	=119	=119	=119	=119	=119	=119	=119	=119	=119	=119	=119
8A\L	.	16aa\LL	.	16aa\LL	.	2c\	pa-	2c\	pa-	2ff\	no-	2f\	2a\	2ddd\
.	.	16aa\	.	16bb-\	.	.	.	.	.	.	.	.	.	.
8A\	.	16aa\	.	16ccc\	.	.	.	.	.	.	.	.	.	.
.	.	16aa\	.	16ccc\JJ	.	.	.	.	.	.	.	.	.	.
8d\	.	16aa\	.	16ccc\LL	.	.	.	.	.	.	.	.	.	.
.	.	16aa\	.	16ccc\	.	.	.	.	.	.	.	.	.	.
8d\J	.	16aa\	.	16ccc\	.	.	.	.	.	.	.	.	.	.
.	.	16aa\JJ	.	16ccc\JJ	.	.	.	.	.	.	.	.	.	.
=120	=120	=120	=120	=120	=120	=120	=120	=120	=120	=120	=120	=120	=120	=120
8B-\L	.	16gg\LL	.	16gg\LL	.	2C/	-cem	2C/	-cem	2ee\	-bis	2c/	2g\	2ccc\
.	.	16gg\	.	16aa\	.	.	.	.	.	.	.	.	.	.
8B-\	.	16gg\	.	16bb-\	.	.	.	.	.	.	.	.	.	.
.	.	16gg\	.	16bb-\JJ	.	.	.	.	.	.	.	.	.	.
8c\	.	16gg\	.	16bb-\LL	.	.	.	.	.	.	.	.	.	.
.	.	16gg\	.	16bb-\	.	.	.	.	.	.	.	.	.	.
8c\J	.	16gg\	.	16bb-\	.	.	.	.	.	.	.	.	.	.
.	.	16gg\JJ	.	16bb-\JJ	.	.	.	.	.	.	.	.	.	.
!LO:LB:g=original	!	!	!	!LO:LB:g=original	!	!	!	!	!	!	!	!	!	!
=121	=121	=121	=121	=121	=121	=121	=121	=121	=121	=121	=121	=121	=121	=121
!	!	!	!	!LO:TX:a:t=problem:powtórzenie tt. 115-120 oznaczone znakami repetycji	!	!	!	!	!	!	!	!	!	!
8A\L	.	16aa\LL	.	16aa\LLyy	.	2A\	{pa-	2A/	{pa-	2aa\	pa-	2a\	2cc\	2fff\
.	.	16aa\	.	16bb-\yy	.	.	.	.	.	.	.	.	.	.
8A\	.	16aa\	.	16ccc\yy	.	.	.	.	.	.	.	.	.	.
.	.	16aa\	.	16ccc\JJyy	.	.	.	.	.	.	.	.	.	.
8F\	.	16aa\	.	16ccc\yyLL	.	.	.	.	.	.	.	.	.	.
.	.	16aa\	.	16ccc\yy	.	.	.	.	.	.	.	.	.	.
8F\J	.	16aa\	.	16ccc\yy	.	.	.	.	.	.	.	.	.	.
.	.	16aa\JJ	.	16ccc\yyJJ	.	.	.	.	.	.	.	.	.	.
=122	=122	=122	=122	=122	=122	=122	=122	=122	=122	=122	=122	=122	=122	=122
8A\L	.	16aa\LL	.	4ccc\yy	.	2F\	-cem}	2F/	-cem}	2ff\	-cem	2a\	2cc\	2ccc\
.	.	16aa\	.	.	.	.	.	.	.	.	.	.	.	.
8A\	.	16aa\	.	.	.	.	.	.	.	.	.	.	.	.
.	.	16aa\	.	.	.	.	.	.	.	.	.	.	.	.
8F\	.	16aa\	.	16bb-\LLyy	.	.	.	.	.	.	.	.	.	.
.	.	16aa\	.	16aa\yy	.	.	.	.	.	.	.	.	.	.
8F\J	.	16aa\	.	16gg\yy	.	.	.	.	.	.	.	.	.	.
.	.	16aa\JJ	.	16ff\JJyy	.	.	.	.	.	.	.	.	.	.
!	!	!	!	!	!	!	!	!	!	!	!	!LO:LB:g=original	!	!
=123	=123	=123	=123	=123	=123	=123	=123	=123	=123	=123	=123	=123	=123	=123
8B-\L	.	16ddd\LL	.	16ddd\LLyy	.	2B-\	pa-	2B-\	pa-	2bb-\	pa-	2b-\	2dd\	2fff\
.	.	16ddd\	.	16eee\yy	.	.	.	.	.	.	.	.	.	.
8B-\	.	16ddd\	.	16fff\yy	.	.	.	.	.	.	.	.	.	.
.	.	16ddd\	.	16fff\JJyy	.	.	.	.	.	.	.	.	.	.
8F\	.	16ddd\	.	16fff\yyLL	.	.	.	.	.	.	.	.	.	.
.	.	16ddd\	.	16fff\yy	.	.	.	.	.	.	.	.	.	.
8F\J	.	16ddd\	.	16fff\yy	.	.	.	.	.	.	.	.	.	.
.	.	16ddd\JJ	.	16fff\yyJJ	.	.	.	.	.	.	.	.	.	.
=124	=124	=124	=124	=124	=124	=124	=124	=124	=124	=124	=124	=124	=124	=124
8B-\L	.	16ddd\LL	.	16fff\yyLL	.	2F\	-cem	2F/	-cem	2gg\	-cem	2b-\	2dd\	2ddd\
.	.	16ddd\	.	16fff\yy	.	.	.	.	.	.	.	.	.	.
8B-\	.	16ddd\	.	16fff\yy	.	.	.	.	.	.	.	.	.	.
.	.	16ddd\	.	16fff\yyJJ	.	.	.	.	.	.	.	.	.	.
8F\	.	16ddd\	.	16eee\LLyy	.	.	.	.	.	.	.	.	.	.
.	.	16ddd\	.	16ddd\yy	.	.	.	.	.	.	.	.	.	.
8F\J	.	16ddd\	.	16ccc\yy	.	.	.	.	.	.	.	.	.	.
.	.	16ddd\JJ	.	16bb-\JJyy	.	.	.	.	.	.	.	.	.	.
!	!	!LO:LB:g=original	!	!	!	!	!	!	!	!	!	!	!	!
=125	=125	=125	=125	=125	=125	=125	=125	=125	=125	=125	=125	=125	=125	=125
8A\L	.	16aa\LL	.	16aa\LLyy	.	2c\	pa-	2c\	pa-	2ff\	pa-	2a\	2a\	2fff\
.	.	16aa\	.	16bb-\yy	.	.	.	.	.	.	.	.	.	.
8A\	.	16aa\	.	16ccc\yy	.	.	.	.	.	.	.	.	.	.
.	.	16aa\	.	16ccc\JJyy	.	.	.	.	.	.	.	.	.	.
8d\	.	16aa\	.	16ccc\yyLL	.	.	.	.	.	.	.	.	.	.
.	.	16aa\	.	16ccc\yy	.	.	.	.	.	.	.	.	.	.
8d\J	.	16aa\	.	16ccc\yy	.	.	.	.	.	.	.	.	.	.
.	.	16aa\JJ	.	16ccc\yyJJ	.	.	.	.	.	.	.	.	.	.
=126	=126	=126	=126	=126	=126	=126	=126	=126	=126	=126	=126	=126	=126	=126
8B-\L	.	16gg\LL	.	16gg\LLyy	.	2C/	.	2C/	.	2ee\	.	2g\	2g\	2ccc\
.	.	16gg\	.	16aa\yy	.	.	.	.	.	.	.	.	.	.
8B-\	.	16gg\	.	16bb-\yy	.	.	.	.	.	.	.	.	.	.
.	.	16gg\	.	16bb-\JJyy	.	.	.	.	.	.	.	.	.	.
8c\	.	16gg\	.	16bb-\yyLL	.	.	.	.	.	.	.	.	.	.
.	.	16gg\	.	16bb-\yy	.	.	.	.	.	.	.	.	.	.
8c\J	.	16gg\	.	16bb-\yy	.	.	.	.	.	.	.	.	.	.
.	.	16gg\JJ	.	16bb-\yyJJ	.	.	.	.	.	.	.	.	.	.
*	*	*	*	*Xtremolo	*	*	*	*	*	*	*	*	*	*
*	*	*	*	*Xtremolo	*	*	*	*	*	*	*	*	*	*
!	!	!	!	!LO:LB:g=original	!	!	!	!	!	!	!	!	!	!
=127	=127	=127	=127	=127	=127	=127	=127	=127	=127	=127	=127	=127	=127	=127
*	*	*	*	*^	*	*	*	*	*	*	*	*	*	*
4F\	.	16cc\LL	.	4aa/	4cc\	.	4F\	-cem	4F/	-cem	4ff\	-cem	2F/	2f\	4fff\
.	.	16cc\	.	.	.	.	.	.	.	.	.	.	.	.	.
.	.	16cc\	.	.	.	.	.	.	.	.	.	.	.	.	.
.	.	16cc\	.	.	.	.	.	.	.	.	.	.	.	.	.
4r	.	16cc\	.	4r	4r	.	4r	.	4r	.	4r	.	.	.	4r
.	.	16cc\	.	.	.	.	.	.	.	.	.	.	.	.	.
.	.	16cc\	.	.	.	.	.	.	.	.	.	.	.	.	.
.	.	16cc\JJ	.	.	.	.	.	.	.	.	.	.	.	.	.
!	!	!	!	!	!	!	!	!	!	!	!LO:LB:g=original	!	!	!	!
*	*	*	*	*v	*v	*	*	*	*	*	*	*	*	*	*
=128	=128	=128	=128	=128	=128	=128	=128	=128	=128	=128	=128	=128	=128	=128
*	*	*	*	*^	*	*	*	*	*	*	*	*	*	*
4r	.	16cc\LL	.	4r	4ryy	.	4r	.	4r	.	4r	.	2F/	2f\	4r
.	.	16cc\	.	.	.	.	.	.	.	.	.	.	.	.	.
.	.	16cc\	.	.	.	.	.	.	.	.	.	.	.	.	.
.	.	16cc\	.	.	.	.	.	.	.	.	.	.	.	.	.
4F\	.	16cc\	.	4ff/	4a\	.	4d\	pa-	4d\	pa-	4ff\	pa-	.	.	4fff\
.	.	16cc\	.	.	.	.	.	.	.	.	.	.	.	.	.
.	.	16cc\	.	.	.	.	.	.	.	.	.	.	.	.	.
.	.	16cc\JJ	.	.	.	.	.	.	.	.	.	.	.	.	.
*	*	*	*	*v	*v	*	*	*	*	*	*	*	*	*	*
=129	=129	=129	=129	=129	=129	=129	=129	=129	=129	=129	=129	=129	=129	=129
4G\	.	16cc\LL	.	4e/ 4cc 4gg	.	4c\	-cem	4c\	-cem	4gg\	-cem	2F/	2f\	4eee\
.	.	16cc\	.	.	.	.	.	.	.	.	.	.	.	.
.	.	16cc\	.	.	.	.	.	.	.	.	.	.	.	.
.	.	16cc\	.	.	.	.	.	.	.	.	.	.	.	.
4r	.	16cc\	.	4r	.	4r	.	4r	.	4r	.	.	.	4r
.	.	16cc\	.	.	.	.	.	.	.	.	.	.	.	.
.	.	16cc\	.	.	.	.	.	.	.	.	.	.	.	.
.	.	16cc\JJ	.	.	.	.	.	.	.	.	.	.	.	.
=130	=130	=130	=130	=130	=130	=130	=130	=130	=130	=130	=130	=130	=130	=130
*	*	*	*	*^	*	*	*	*	*	*	*	*	*	*
4r	.	16cc\LL	.	4r	4ryy	.	4r	.	4r	.	4r	.	2F/	2f\	4r
.	.	16cc\	.	.	.	.	.	.	.	.	.	.	.	.	.
.	.	16cc\	.	.	.	.	.	.	.	.	.	.	.	.	.
.	.	16cc\	.	.	.	.	.	.	.	.	.	.	.	.	.
4C/	.	16cc\	.	4cc/ 4ee	4g\	.	4C/	{pa-	4C/	{pa-	4ee\	pa-	.	.	4eee\
.	.	16cc\	.	.	.	.	.	.	.	.	.	.	.	.	.
.	.	16cc\	.	.	.	.	.	.	.	.	.	.	.	.	.
.	.	16cc\JJ	.	.	.	.	.	.	.	.	.	.	.	.	.
*	*	*	*	*v	*v	*	*	*	*	*	*	*	*	*	*
=131	=131	=131	=131	=131	=131	=131	=131	=131	=131	=131	=131	=131	=131	=131
4F\	.	16cc\LL	.	4a/ 4ff	.	4F\	-cem}	4F/	-cem}	4ff\	-cem	2F/	2f\	4fff\
.	.	16cc\	.	.	.	.	.	.	.	.	.	.	.	.
.	.	16cc\	.	.	.	.	.	.	.	.	.	.	.	.
.	.	16cc\	.	.	.	.	.	.	.	.	.	.	.	.
4r	.	16cc\	.	4r	.	4r	.	4r	.	4r	.	.	.	4r
.	.	16cc\	.	.	.	.	.	.	.	.	.	.	.	.
.	.	16cc\	.	.	.	.	.	.	.	.	.	.	.	.
.	.	16cc\JJ	.	.	.	.	.	.	.	.	.	.	.	.
!	!	!	!	!	!	!	!	!LO:LB:g=original	!	!	!	!	!LO:LB:g=original	!LO:LB:g=original
=132	=132	=132	=132	=132	=132	=132	=132	=132	=132	=132	=132	=132	=132	=132
4r	.	16cc\LL	.	4r	.	4r	.	4r	.	4r	.	2F/	2f\	4r
.	.	16cc\	.	.	.	.	.	.	.	.	.	.	.	.
.	.	16cc\	.	.	.	.	.	.	.	.	.	.	.	.
.	.	16cc\	.	.	.	.	.	.	.	.	.	.	.	.
4F\	.	16cc\	.	4a/ 4ff	.	4f\	pa-	4f\	pa-	4ff\	{pa-	.	.	4fff\
.	.	16cc\	.	.	.	.	.	.	.	.	.	.	.	.
.	.	16cc\	.	.	.	.	.	.	.	.	.	.	.	.
.	.	16cc\JJ	.	.	.	.	.	.	.	.	.	.	.	.
=133	=133	=133	=133	=133	=133	=133	=133	=133	=133	=133	=133	=133	=133	=133
4G\	.	16cc\LL	.	4e/ 4cc 4gg	.	4F\	-cem	4F/	-cem	4gg\	-cem}	2F/	2f\	4ggg\
.	.	16cc\	.	.	.	.	.	.	.	.	.	.	.	.
.	.	16cc\	.	.	.	.	.	.	.	.	.	.	.	.
.	.	16cc\	.	.	.	.	.	.	.	.	.	.	.	.
4r	.	16cc\	.	4r	.	4r	.	4r	.	4r	.	.	.	4r
.	.	16cc\	.	.	.	.	.	.	.	.	.	.	.	.
.	.	16cc\	.	.	.	.	.	.	.	.	.	.	.	.
.	.	16cc\JJ	.	.	.	.	.	.	.	.	.	.	.	.
!LO:LB:g=original	!	!	!	!	!	!	!	!	!	!	!	!	!	!
=134	=134	=134	=134	=134	=134	=134	=134	=134	=134	=134	=134	=134	=134	=134
4r	.	16cc\LL	.	4r	.	4r	.	4r	.	4r	.	2F/	2f\	4r
.	.	16cc\	.	.	.	.	.	.	.	.	.	.	.	.
.	.	16cc\	.	.	.	.	.	.	.	.	.	.	.	.
.	.	16cc\	.	.	.	.	.	.	.	.	.	.	.	.
4C/	.	16cc\	.	4g/ 4cc 4ee	.	4C/	pa-	4C/	pa-	4ee\	pa-	.	.	4eee\
.	.	16cc\	.	.	.	.	.	.	.	.	.	.	.	.
.	.	16cc\	.	.	.	.	.	.	.	.	.	.	.	.
.	.	16cc\JJ	.	.	.	.	.	.	.	.	.	.	.	.
*	*	*Xtremolo	*	*	*	*	*	*	*	*	*	*	*	*
*	*	*Xtremolo	*	*	*	*	*	*	*	*	*	*	*	*
=135	=135	=135	=135	=135	=135	=135	=135	=135	=135	=135	=135	=135	=135	=135
4F\	.	4a/ 4ff	.	4a/ 4ff	.	2F\	.	2F/	.	4ff\	-cem	4F/	4f\	4fff\
4F\	.	4a/ 4ff	.	4a/ 4ff	.	.	.	.	.	4ff\	pa-	4F/	4f\	4fff\
=136	=136	=136	=136	=136	=136	=136	=136	=136	=136	=136	=136	=136	=136	=136
4F\	.	4a/ 4ff	.	4a/ 4ff	.	4F\	-cem	4F/	-cem	4ff\	-cem	4F/	4f\	4fff\
!LO:TX:b:t=Finis	!	!LO:TX:b:t=Finis	!LO:TX:b:t=Finis	!	!	!	!	!	!	!	!	!	!	!
4r	.	4r	.	4r	.	4r	.	4r	.	4r	.	4r	4r	4r
==	==	==	==	==	==	==	==	==	==	==	==	==	==	==
*-	*-	*-	*-	*-	*-	*-	*-	*-	*-	*-	*-	*-	*-	*-
!!!system-decoration: [(g1)][(g2)][(g3)][(g4)]g5
!!!ENC: Anna Matuszewska
!!!END: 2020-09-06
